luts/cinematic-stream-teal-orange-soft.cube
# Cinematic Stream TealOrange Soft
# Softer live-safe blend of the cinematic look (~55% strength).
# Better default for long streams / bright key light. Bump OBS intensity if needed.
TITLE "Cinematic Stream TealOrange Soft"
LUT_3D_SIZE 5
DOMAIN_MIN 0.000000 0.000000 0.000000
DOMAIN_MAX 1.000000 1.000000 1.000000
0.000270 0.019542 0.037944
0.242966 0.018181 0.054608
0.476390 0.010858 0.117155
0.735453 0.005924 0.134149
0.982449 0.002434 0.141517
0.013269 0.263847 0.031209
0.262679 0.264742 0.027449
0.492391 0.260425 0.014394
0.752108 0.272022 0.002539
0.981893 0.275218 0.003296
0.039826 0.489804 0.025686
0.280226 0.491681 0.029744
0.500240 0.493891 0.032687
0.750176 0.487772 0.003711
0.982888 0.484448 0.003514
0.030375 0.741735 0.013595
0.277956 0.742866 0.012256
0.507441 0.744033 0.010411
0.756723 0.745477 0.007647
0.984041 0.729001 0.002528
0.038003 0.984011 0.005280
0.284161 0.984241 0.002702
0.510905 0.984394 0.001613
0.755248 0.984519 0.000971
0.984584 0.984584 0.000330
0.000521 0.019724 0.283042
0.199994 0.011108 0.358979
0.382833 0.000401 0.645515
0.682433 0.000797 0.583124
0.975191 0.001449 0.610609
0.016605 0.264078 0.270065
0.265544 0.265200 0.265249
0.495624 0.286008 0.258433
0.736438 0.314655 0.248185
0.976066 0.332539 0.224258
0.041997 0.490276 0.262966
0.281505 0.492414 0.266361
0.501163 0.494813 0.268476
0.744782 0.493118 0.256172
0.983032 0.486282 0.229521
0.032232 0.741541 0.259952
0.288202 0.739437 0.268306
0.512267 0.742358 0.266342
0.756945 0.745348 0.262490
0.984101 0.726489 0.236506
0.038983 0.984095 0.247520
0.285004 0.984307 0.245202
0.511510 0.984443 0.243567
0.755435 0.984549 0.242351
0.984597 0.984597 0.241833
0.000687 0.019888 0.508072
0.186718 0.005864 0.612426
0.366939 0.000316 0.684656
0.515602 0.000444 0.757962
0.735425 0.000705 0.757698
0.019398 0.264347 0.489155
0.267892 0.265654 0.483462
0.449406 0.268796 0.524241
0.707957 0.255827 0.708524
0.981891 0.224719 0.748274
0.043355 0.490826 0.480754
0.282561 0.493142 0.483185
0.501963 0.495593 0.485544
0.745960 0.509229 0.484521
0.978508 0.530587 0.463346
0.032675 0.741912 0.484743
0.289219 0.740349 0.487797
0.513529 0.743198 0.486722
0.758253 0.746032 0.484621
0.982592 0.729228 0.460762
0.039776 0.984162 0.470189
0.286548 0.984158 0.468817
0.514031 0.983968 0.469384
0.755829 0.984440 0.467154
0.984600 0.984600 0.465711
0.000252 0.019673 0.758479
0.191486 0.006539 0.814934
0.323421 0.000289 0.870680
0.521001 0.000456 0.870448
0.645899 0.000483 0.870416
0.016612 0.265250 0.738754
0.270501 0.266267 0.719406
0.432299 0.268241 0.771291
0.621340 0.261204 0.850607
0.645883 0.192224 0.869847
0.031936 0.494318 0.726844
0.283259 0.494150 0.718197
0.502839 0.496444 0.721597
0.721055 0.499844 0.758668
0.875564 0.458830 0.863862
0.033317 0.742377 0.729126
0.290119 0.741510 0.726321
0.514823 0.744225 0.726215
0.759871 0.746853 0.725331
0.982567 0.739484 0.707975
0.040646 0.984234 0.712135
0.287114 0.984249 0.710688
0.514571 0.984042 0.710815
0.755688 0.984517 0.709508
0.984600 0.984600 0.709005
0.000638 0.019150 0.983176
0.190355 0.006829 0.983176
0.322241 0.000287 0.983184
0.448177 0.000310 0.983146
0.639909 0.000470 0.982931
0.018652 0.261737 0.979894
0.268363 0.261982 0.978540
0.423971 0.247344 0.982078
0.525004 0.225215 0.982187
0.703068 0.210422 0.982165
0.028726 0.489350 0.978636
0.272953 0.489982 0.977866
0.501040 0.494565 0.969275
0.640232 0.477402 0.973486
0.793992 0.459850 0.974936
0.031440 0.734662 0.978950
0.279519 0.736448 0.977408
0.511759 0.739071 0.973682
0.754381 0.741195 0.974094
0.978134 0.735169 0.982896
0.041521 0.984307 0.969574
0.287567 0.984341 0.968181
0.514124 0.984264 0.967611
0.755352 0.984600 0.967760
0.984600 0.984600 0.967760
