luts/cinematic-stream-teal-orange-soft.cube
# Cinematic Stream TealOrange Soft
# Softer live-safe blend of the cinematic look (~55% strength).
# Better default for long streams / bright key light. Bump OBS intensity if needed.
TITLE "Cinematic Stream TealOrange Soft"
LUT_3D_SIZE 9
DOMAIN_MIN 0.000000 0.000000 0.000000
DOMAIN_MAX 1.000000 1.000000 1.000000
0.000270 0.019542 0.037944
0.122045 0.019828 0.038135
0.242966 0.018181 0.054608
0.363563 0.013706 0.092857
0.476390 0.010858 0.117155
0.600289 0.009023 0.125719
0.735453 0.005924 0.134149
0.871154 0.004176 0.141349
0.982449 0.002434 0.141517
0.003300 0.145031 0.037093
0.128295 0.145309 0.035459
0.249559 0.145468 0.033240
0.368920 0.145445 0.026020
0.481156 0.147194 0.018998
0.606178 0.148552 0.011375
0.741629 0.148616 0.002803
0.875870 0.153032 0.001869
0.982046 0.154370 0.002158
0.013269 0.263847 0.031209
0.141758 0.264236 0.029117
0.262679 0.264742 0.027449
0.380484 0.263218 0.023502
0.492391 0.260425 0.014394
0.618544 0.264039 0.006481
0.752108 0.272022 0.002539
0.883353 0.277654 0.003032
0.981893 0.275218 0.003296
0.028575 0.379677 0.025991
0.155493 0.380287 0.025236
0.274455 0.381027 0.025264
0.389407 0.381907 0.026048
0.497613 0.380134 0.023683
0.619975 0.376498 0.009377
0.751261 0.378987 0.003463
0.883594 0.385507 0.003723
0.982360 0.383853 0.003619
0.039826 0.489804 0.025686
0.163797 0.490702 0.027490
0.280226 0.491681 0.029744
0.393464 0.492741 0.032021
0.500240 0.493891 0.032687
0.619478 0.492736 0.020040
0.750176 0.487772 0.003711
0.882989 0.489734 0.003666
0.982888 0.484448 0.003514
0.039589 0.611126 0.024012
0.163083 0.612243 0.024245
0.280304 0.613216 0.024233
0.395096 0.614089 0.024098
0.503981 0.614899 0.023698
0.622631 0.615963 0.021653
0.751191 0.615142 0.009798
0.885188 0.609950 0.003386
0.983482 0.599864 0.003197
0.030375 0.741735 0.013595
0.157363 0.742288 0.013022
0.277956 0.742866 0.012256
0.395955 0.743468 0.011344
0.507441 0.744033 0.010411
0.628640 0.744713 0.009209
0.756723 0.745477 0.007647
0.889653 0.744895 0.004912
0.984041 0.729001 0.002528
0.033419 0.873774 0.010153
0.161654 0.874570 0.008896
0.283148 0.875301 0.007667
0.401800 0.875994 0.006441
0.513693 0.876594 0.005332
0.635163 0.877263 0.004040
0.763276 0.877937 0.002664
0.895708 0.878556 0.001705
0.984436 0.865535 0.001438
0.038003 0.984011 0.005280
0.164480 0.984139 0.003902
0.284161 0.984241 0.002702
0.400886 0.984327 0.001850
0.510905 0.984394 0.001613
0.629991 0.984461 0.001318
0.755248 0.984519 0.000971
0.884389 0.984565 0.000579
0.984584 0.984584 0.000330
0.000394 0.019629 0.164126
0.114970 0.018677 0.166606
0.239269 0.016015 0.190090
0.349482 0.001746 0.324053
0.458035 0.001895 0.362248
0.600251 0.002372 0.379044
0.735832 0.000888 0.393010
0.870490 0.001071 0.401103
0.982336 0.001281 0.394203
0.003946 0.145117 0.161436
0.129557 0.145439 0.159267
0.252188 0.145923 0.163930
0.373615 0.143809 0.191529
0.485576 0.142468 0.202665
0.605992 0.141816 0.208683
0.739625 0.139184 0.216169
0.865197 0.224255 0.110636
0.971078 0.230002 0.102507
0.015014 0.263960 0.154109
0.143418 0.264408 0.151684
0.264198 0.264973 0.149773
0.382540 0.264410 0.145157
0.494567 0.265613 0.136842
0.613486 0.268603 0.133893
0.745900 0.269410 0.126990
0.881517 0.269935 0.122318
0.981897 0.265924 0.119318
0.030256 0.379860 0.148104
0.156874 0.380544 0.147214
0.275505 0.381353 0.147174
0.390088 0.382302 0.147941
0.498299 0.380123 0.145302
0.616136 0.379310 0.139055
0.748801 0.379854 0.123494
0.884194 0.382229 0.114243
0.982333 0.376575 0.111003
0.041118 0.489999 0.147807
0.164642 0.490983 0.149624
0.280938 0.492029 0.151613
0.394039 0.493154 0.153637
0.500694 0.494357 0.154147
0.617423 0.492134 0.150296
0.747835 0.489011 0.133027
0.884465 0.488294 0.118251
0.982886 0.479408 0.108055
0.042552 0.610446 0.149429
0.169273 0.610135 0.154301
0.284487 0.611675 0.154583
0.397645 0.613077 0.154622
0.505239 0.614319 0.154373
0.622425 0.615765 0.153497
0.750206 0.613988 0.140802
0.886629 0.609325 0.124629
0.983501 0.596508 0.114337
0.032032 0.741345 0.141061
0.164755 0.739613 0.146957
0.283363 0.740855 0.146013
0.399691 0.742020 0.144867
0.509879 0.743026 0.143675
0.629790 0.744150 0.142112
0.756875 0.745397 0.138858
0.890792 0.743575 0.129796
0.984066 0.726755 0.120211
0.033917 0.874042 0.136505
0.162279 0.874817 0.135342
0.283769 0.875563 0.134111
0.402418 0.876257 0.132905
0.514303 0.876850 0.131830
0.635751 0.877502 0.130598
0.763821 0.878149 0.129310
0.896180 0.878731 0.128065
0.984459 0.865649 0.125132
0.038524 0.984056 0.129831
0.164976 0.984179 0.128514
0.284617 0.984277 0.127384
0.401286 0.984358 0.126390
0.511241 0.984420 0.125597
0.630236 0.984482 0.124809
0.755371 0.984535 0.124154
0.884389 0.984576 0.123733
0.984592 0.984592 0.123512
0.000521 0.019724 0.283042
0.103756 0.016434 0.295007
0.199994 0.011108 0.358979
0.318135 0.001290 0.404233
0.382833 0.000401 0.645515
0.532491 0.000595 0.630928
0.682433 0.000797 0.583124
0.840507 0.001132 0.599303
0.975191 0.001449 0.610609
0.004576 0.145206 0.278630
0.130760 0.145569 0.275996
0.232658 0.147921 0.287058
0.331537 0.150222 0.373374
0.463598 0.137741 0.415546
0.620778 0.129225 0.448631
0.757099 0.124566 0.460243
0.895100 0.121105 0.470150
0.982063 0.115334 0.454524
0.016605 0.264078 0.270065
0.144911 0.264582 0.267360
0.265544 0.265200 0.265249
0.384103 0.270617 0.263386
0.495624 0.286008 0.258433
0.612996 0.300563 0.253210
0.736438 0.314655 0.248185
0.874436 0.327992 0.235783
0.976066 0.332539 0.224258
0.031728 0.380046 0.263411
0.158055 0.380797 0.262417
0.276368 0.381669 0.262334
0.390604 0.382681 0.263102
0.499880 0.382149 0.260145
0.617268 0.385233 0.255637
0.740227 0.388519 0.254624
0.878649 0.388608 0.246909
0.982484 0.381361 0.238818
0.041997 0.490276 0.262966
0.165272 0.491322 0.264645
0.281505 0.492414 0.266361
0.394469 0.493636 0.267830
0.501163 0.494813 0.268476
0.618660 0.492789 0.264560
0.744782 0.493118 0.256172
0.884507 0.494437 0.238994
0.983032 0.486282 0.229521
0.042603 0.610878 0.265225
0.169481 0.610646 0.268864
0.284750 0.612153 0.269409
0.398064 0.613558 0.269640
0.505788 0.614797 0.269575
0.623083 0.616215 0.269197
0.749223 0.613833 0.263113
0.886850 0.611318 0.245238
0.983576 0.599010 0.230493
0.032232 0.741541 0.259952
0.167344 0.739150 0.265957
0.288202 0.739437 0.268306
0.403176 0.741018 0.267374
0.512267 0.742358 0.266342
0.631026 0.743829 0.264919
0.756945 0.745348 0.262490
0.891298 0.742786 0.249901
0.984101 0.726489 0.236506
0.034378 0.874285 0.255806
0.164113 0.874556 0.255801
0.287656 0.874426 0.257282
0.405217 0.875470 0.255804
0.516300 0.876320 0.254467
0.636993 0.877209 0.252912
0.764442 0.878046 0.251261
0.896451 0.878807 0.248800
0.984479 0.865738 0.243158
0.038983 0.984095 0.247520
0.165407 0.984213 0.246265
0.285004 0.984307 0.245202
0.401617 0.984384 0.244283
0.511510 0.984443 0.243567
0.630417 0.984500 0.242880
0.755435 0.984549 0.242351
0.884386 0.984584 0.242026
0.984597 0.984597 0.241833
0.000657 0.019828 0.398733
0.102537 0.015895 0.410318
0.185933 0.005991 0.537859
0.284365 0.000244 0.580270
0.392267 0.000353 0.613213
0.462764 0.000452 0.701703
0.533825 0.000484 0.701664
0.714022 0.000803 0.701370
0.860213 0.001084 0.701187
0.005214 0.145300 0.392628
0.131960 0.145706 0.389568
0.227128 0.145315 0.403418
0.309966 0.143665 0.421141
0.419808 0.148073 0.538306
0.546532 0.134112 0.684709
0.721654 0.116847 0.673277
0.885278 0.107500 0.692145
0.982056 0.100758 0.674820
0.018133 0.264206 0.382938
0.146326 0.264763 0.379984
0.266803 0.265433 0.377698
0.379228 0.266548 0.388042
0.481435 0.266900 0.462784
0.623366 0.258458 0.516433
0.752947 0.255423 0.533568
0.894059 0.249033 0.556462
0.981893 0.237610 0.546620
0.033086 0.380242 0.375717
0.159118 0.381057 0.374642
0.277115 0.381991 0.374533
0.391006 0.383062 0.375314
0.499306 0.385799 0.375951
0.617433 0.398397 0.375169
0.742134 0.417639 0.370755
0.873392 0.434102 0.363104
0.977942 0.435733 0.346735
0.042743 0.490560 0.375176
0.165885 0.491658 0.376630
0.282060 0.492794 0.378088
0.394850 0.494093 0.379307
0.501594 0.495233 0.380173
0.620993 0.495836 0.376561
0.745610 0.499592 0.372192
0.876406 0.502000 0.368675
0.981305 0.493003 0.355945
0.042642 0.611279 0.378269
0.169599 0.611143 0.380713
0.284981 0.612627 0.381482
0.398458 0.614029 0.381895
0.506316 0.615260 0.382001
0.623756 0.616663 0.381831
0.750691 0.614830 0.376346
0.885394 0.615482 0.364836
0.982845 0.603693 0.345279
0.032454 0.741735 0.375822
0.167654 0.739592 0.379671
0.288864 0.739874 0.381432
0.403888 0.741444 0.380764
0.513004 0.742772 0.379978
0.631766 0.744226 0.378856
0.757585 0.745682 0.377401
0.891113 0.742735 0.368631
0.983612 0.727229 0.351503
0.034827 0.874519 0.372070
0.164603 0.874821 0.371792
0.290587 0.873815 0.374810
0.408795 0.874490 0.375047
0.518874 0.875630 0.373678
0.638574 0.876805 0.372020
0.765161 0.877883 0.370170
0.896514 0.878803 0.367597
0.984330 0.864555 0.358251
0.039409 0.984131 0.362258
0.165800 0.984245 0.361065
0.286283 0.984120 0.360943
0.403173 0.984101 0.360717
0.512570 0.984248 0.359832
0.631001 0.984386 0.358948
0.755618 0.984499 0.358197
0.884397 0.984577 0.357543
0.984600 0.984600 0.357200
0.000687 0.019888 0.508072
0.105455 0.016313 0.515433
0.186718 0.005864 0.612426
0.263722 0.000283 0.758190
0.366939 0.000316 0.684656
0.483869 0.000499 0.757898
0.515602 0.000444 0.757962
0.575874 0.000453 0.757951
0.735425 0.000705 0.757698
0.005513 0.145408 0.500401
0.133058 0.145836 0.496267
0.229758 0.143555 0.505905
0.306967 0.149863 0.566334
0.390053 0.138513 0.547708
0.525344 0.137938 0.744966
0.553435 0.101925 0.757523
0.731975 0.092907 0.757351
0.864039 0.087243 0.757258
0.019398 0.264347 0.489155
0.147567 0.264937 0.485890
0.267892 0.265654 0.483462
0.355441 0.271254 0.504968
0.449406 0.268796 0.524241
0.538489 0.280881 0.680758
0.707957 0.255827 0.708524
0.874501 0.238891 0.748596
0.981891 0.224719 0.748274
0.034247 0.380430 0.481370
0.160004 0.381303 0.480237
0.277709 0.382291 0.480116
0.391218 0.383430 0.480941
0.500537 0.385559 0.489184
0.625238 0.385452 0.549400
0.752117 0.381185 0.603446
0.885100 0.376610 0.633086
0.979470 0.360271 0.626217
0.043355 0.490826 0.480754
0.166439 0.491967 0.481956
0.282561 0.493142 0.483185
0.395174 0.494485 0.484484
0.501963 0.495593 0.485544
0.619669 0.498604 0.486192
0.745960 0.509229 0.484521
0.877519 0.528014 0.479443
0.978508 0.530587 0.463346
0.042667 0.611624 0.484790
0.169691 0.611571 0.486218
0.285205 0.613046 0.487167
0.398821 0.614443 0.487744
0.506794 0.615665 0.488003
0.624359 0.617053 0.488021
0.753155 0.617614 0.482821
0.885804 0.621572 0.475215
0.980617 0.611508 0.461771
0.032675 0.741912 0.484743
0.167941 0.739980 0.486764
0.289219 0.740349 0.487797
0.404339 0.741896 0.487325
0.513529 0.743198 0.486722
0.632367 0.744619 0.485821
0.758253 0.746032 0.484621
0.891948 0.743595 0.477711
0.982592 0.729228 0.460762
0.035230 0.874726 0.481342
0.165036 0.875055 0.480832
0.290959 0.874179 0.482761
0.409935 0.874573 0.483450
0.519818 0.875738 0.482307
0.639289 0.876935 0.480888
0.765645 0.878026 0.479271
0.896719 0.878900 0.477528
0.984103 0.863375 0.466520
0.039776 0.984162 0.470189
0.166133 0.984271 0.469054
0.286548 0.984158 0.468817
0.405037 0.983766 0.470142
0.514031 0.983968 0.469384
0.631765 0.984229 0.468238
0.755829 0.984440 0.467154
0.884401 0.984579 0.466013
0.984600 0.984600 0.465711
0.000403 0.019784 0.630025
0.109062 0.016662 0.633878
0.188597 0.006065 0.707009
0.268050 0.000290 0.814428
0.335220 0.000310 0.814397
0.452156 0.000412 0.798928
0.540554 0.000500 0.814147
0.576507 0.000454 0.814200
0.596065 0.000378 0.814297
0.004621 0.145508 0.621756
0.134367 0.145983 0.612532
0.233149 0.142876 0.618944
0.310885 0.142668 0.669730
0.392047 0.144254 0.742189
0.489234 0.132004 0.726366
0.570123 0.109932 0.813689
0.543445 0.074778 0.814129
0.694600 0.071175 0.813932
0.018489 0.264846 0.608550
0.149024 0.265161 0.600943
0.269153 0.265934 0.598363
0.354347 0.266676 0.615808
0.430385 0.275035 0.653701
0.528453 0.269170 0.679349
0.600457 0.255194 0.813135
0.690001 0.222590 0.813313
0.819356 0.208476 0.813286
0.032930 0.381216 0.598560
0.160988 0.381615 0.594970
0.278330 0.382668 0.594851
0.391760 0.383842 0.595477
0.481474 0.388383 0.609194
0.588017 0.387471 0.631957
0.678921 0.397292 0.765719
0.823255 0.369370 0.809540
0.939054 0.343960 0.811766
0.040818 0.491961 0.597079
0.167110 0.492348 0.596295
0.282931 0.493620 0.597446
0.395546 0.494937 0.599013
0.502346 0.496013 0.600332
0.620125 0.497910 0.606568
0.754442 0.498879 0.666197
0.889038 0.494588 0.726810
0.977188 0.475817 0.731969
0.042686 0.612024 0.600867
0.169797 0.612070 0.601130
0.285491 0.613542 0.602278
0.399269 0.614931 0.603055
0.507376 0.616141 0.603499
0.625083 0.617509 0.603745
0.752136 0.621093 0.603155
0.884405 0.627361 0.599973
0.979966 0.625686 0.585930
0.032964 0.742129 0.603554
0.168295 0.740440 0.603499
0.289645 0.740905 0.603732
0.404873 0.742422 0.603496
0.514147 0.743693 0.603112
0.633069 0.745071 0.602478
0.759030 0.746430 0.601584
0.894820 0.746603 0.595053
0.982099 0.733176 0.577290
0.035716 0.874973 0.600574
0.165549 0.875330 0.599800
0.291386 0.874601 0.600524
0.410322 0.875051 0.600687
0.520234 0.876165 0.599797
0.639724 0.877297 0.598688
0.766080 0.878310 0.597424
0.897127 0.879093 0.596091
0.984037 0.862247 0.583063
0.040198 0.984197 0.587836
0.166510 0.984302 0.586774
0.286834 0.984202 0.586415
0.405111 0.983869 0.587189
0.514684 0.983919 0.587148
0.632052 0.984219 0.586130
0.755838 0.984458 0.585122
0.884374 0.984600 0.584016
0.984600 0.984600 0.584016
0.000252 0.019673 0.758479
0.113076 0.017070 0.760636
0.191486 0.006539 0.814934
0.265876 0.000286 0.870684
0.323421 0.000289 0.870680
0.410595 0.000345 0.870593
0.521001 0.000456 0.870448
0.596888 0.000500 0.870397
0.645899 0.000483 0.870416
0.003970 0.145458 0.750708
0.135220 0.145731 0.741172
0.237247 0.142204 0.745125
0.315046 0.138229 0.789416
0.389157 0.138481 0.861895
0.470134 0.127999 0.869907
0.568928 0.115860 0.869904
0.615060 0.088963 0.870103
0.624948 0.067957 0.870373
0.016612 0.265250 0.738754
0.149334 0.265343 0.726754
0.270501 0.266267 0.719406
0.357454 0.264292 0.732172
0.432299 0.268241 0.771291
0.516335 0.269134 0.810943
0.621340 0.261204 0.850607
0.661181 0.225436 0.869584
0.645883 0.192224 0.869847
0.027839 0.382497 0.728812
0.160338 0.382172 0.718870
0.278910 0.383112 0.715768
0.392238 0.384337 0.716140
0.473436 0.386214 0.732062
0.553822 0.396864 0.770006
0.655695 0.389838 0.791054
0.687630 0.357592 0.865576
0.752648 0.325358 0.868695
0.031936 0.494318 0.726844
0.165282 0.493286 0.719359
0.283259 0.494150 0.718197
0.395939 0.495418 0.720050
0.502839 0.496444 0.721597
0.603317 0.501171 0.735604
0.721055 0.499844 0.758668
0.797370 0.494256 0.862948
0.875564 0.458830 0.863862
0.033067 0.614843 0.728232
0.167004 0.613332 0.724175
0.285834 0.614089 0.723937
0.399785 0.615467 0.724939
0.508034 0.616662 0.725594
0.625879 0.618010 0.726108
0.752111 0.620016 0.729719
0.892682 0.622137 0.778926
0.979605 0.603062 0.794669
0.033317 0.742377 0.729126
0.168701 0.740946 0.726891
0.290119 0.741510 0.726321
0.405460 0.742991 0.726352
0.514823 0.744225 0.726215
0.633832 0.745554 0.725880
0.759871 0.746853 0.725331
0.893846 0.750673 0.723771
0.982567 0.739484 0.707975
0.036260 0.875247 0.726618
0.166113 0.875633 0.725569
0.291840 0.875055 0.725070
0.410721 0.875556 0.724739
0.520661 0.876612 0.724134
0.640165 0.877671 0.723371
0.766514 0.878595 0.722502
0.897526 0.879276 0.721604
0.984146 0.862189 0.705684
0.040646 0.984234 0.712135
0.166900 0.984334 0.711161
0.287114 0.984249 0.710688
0.405143 0.983976 0.710950
0.514571 0.984042 0.710815
0.631878 0.984311 0.710159
0.755688 0.984517 0.709508
0.884374 0.984600 0.709005
0.984600 0.984600 0.709005
0.000426 0.019680 0.889339
0.117354 0.017857 0.889514
0.193475 0.006988 0.921397
0.261364 0.000279 0.926947
0.323995 0.000290 0.926929
0.377062 0.000284 0.926938
0.482137 0.000375 0.926801
0.581994 0.000466 0.926685
0.652791 0.000499 0.926648
0.005274 0.145406 0.880503
0.136039 0.145271 0.876719
0.241652 0.141634 0.879169
0.318262 0.135588 0.909597
0.380751 0.127563 0.926222
0.425504 0.115008 0.926330
0.522873 0.105755 0.926309
0.612307 0.094582 0.926319
0.665976 0.077486 0.926449
0.017696 0.265235 0.869062
0.148373 0.265189 0.864269
0.271386 0.266016 0.852179
0.361516 0.262481 0.864034
0.436693 0.261769 0.899633
0.495937 0.255575 0.925666
0.578310 0.245440 0.925790
0.664203 0.231077 0.925810
0.709506 0.205120 0.925931
0.026972 0.382785 0.860978
0.156088 0.382810 0.857020
0.278116 0.383439 0.846431
0.392762 0.384874 0.840842
0.475264 0.384023 0.853305
0.553462 0.389230 0.893920
0.629127 0.385318 0.918988
0.713822 0.367187 0.920930
0.750496 0.330827 0.924552
0.029207 0.494995 0.859740
0.157791 0.494905 0.856948
0.281144 0.494909 0.848476
0.396337 0.495911 0.845569
0.503334 0.496902 0.847368
0.593223 0.499594 0.865431
0.680824 0.509398 0.900399
0.785590 0.498521 0.916889
0.792292 0.454080 0.918962
0.029627 0.615787 0.860577
0.158383 0.615647 0.858900
0.283403 0.615193 0.853195
0.400355 0.616031 0.851341
0.508750 0.617207 0.852224
0.626764 0.618521 0.853005
0.739266 0.623676 0.864602
0.875310 0.622822 0.897247
0.911532 0.592307 0.922094
0.031697 0.743160 0.860158
0.162220 0.743196 0.858228
0.288358 0.742687 0.854722
0.406079 0.743579 0.853809
0.515529 0.744772 0.853938
0.634624 0.746046 0.853928
0.760730 0.747275 0.853749
0.892573 0.748791 0.855635
0.982750 0.735864 0.857710
0.036844 0.875537 0.857238
0.166706 0.875952 0.855916
0.292299 0.875522 0.854245
0.411110 0.876068 0.853488
0.521072 0.877059 0.853191
0.640584 0.878036 0.852799
0.766917 0.878864 0.852356
0.897905 0.879448 0.851937
0.984308 0.866011 0.837596
0.041099 0.984272 0.840908
0.167283 0.984366 0.840034
0.287366 0.984296 0.839469
0.405119 0.984082 0.839302
0.514383 0.984160 0.839146
0.631625 0.984397 0.838883
0.755515 0.984567 0.838580
0.884374 0.984600 0.838463
0.984600 0.984600 0.838463
0.000638 0.019150 0.983176
0.118746 0.017863 0.983115
0.190355 0.006829 0.983176
0.257690 0.000272 0.983208
0.322241 0.000287 0.983184
0.380111 0.000289 0.983179
0.448177 0.000310 0.983146
0.553833 0.000406 0.983009
0.639909 0.000470 0.982931
0.006493 0.143159 0.981561
0.135543 0.143085 0.980996
0.241691 0.139451 0.982446
0.310332 0.128729 0.982492
0.370533 0.119189 0.982548
0.422390 0.108061 0.982637
0.474016 0.096631 0.982734
0.576674 0.089197 0.982685
0.657144 0.082881 0.982678
0.018652 0.261737 0.979894
0.147190 0.261749 0.979439
0.268363 0.261982 0.978540
0.359358 0.256491 0.981910
0.423971 0.247344 0.982078
0.480671 0.236819 0.982120
0.525004 0.225215 0.982187
0.622363 0.217447 0.982166
0.703068 0.210422 0.982165
0.027044 0.378232 0.978823
0.153020 0.378396 0.978691
0.272227 0.378992 0.977383
0.389890 0.381762 0.971123
0.472830 0.376846 0.975551
0.535675 0.365804 0.977029
0.585563 0.353542 0.978554
0.666432 0.344173 0.979590
0.747654 0.336311 0.980344
0.028726 0.489350 0.978636
0.153773 0.489530 0.978738
0.272953 0.489982 0.977866
0.391804 0.492368 0.972359
0.501040 0.494565 0.969275
0.582967 0.488539 0.973314
0.640232 0.477402 0.973486
0.711913 0.468252 0.974086
0.793992 0.459850 0.974936
0.028992 0.608554 0.979271
0.154237 0.608857 0.979367
0.274351 0.609487 0.978459
0.394805 0.611383 0.974386
0.505596 0.613232 0.972127
0.622793 0.614299 0.972617
0.713058 0.610962 0.977950
0.798061 0.605263 0.978114
0.889352 0.596778 0.978224
0.031440 0.734662 0.978950
0.157966 0.735530 0.978558
0.279519 0.736448 0.977408
0.400678 0.737793 0.974777
0.511759 0.739071 0.973682
0.629904 0.740177 0.973863
0.754381 0.741195 0.974094
0.874812 0.742945 0.978363
0.978134 0.735169 0.982896
0.036698 0.866418 0.977241
0.163858 0.867522 0.976653
0.286061 0.868337 0.975660
0.406315 0.869060 0.974401
0.516784 0.869882 0.974033
0.635306 0.870767 0.974024
0.760520 0.871489 0.974014
0.890242 0.871923 0.974039
0.984398 0.866174 0.967674
0.041521 0.984307 0.969574
0.167627 0.984395 0.968806
0.287567 0.984341 0.968181
0.405030 0.984178 0.967707
0.514124 0.984264 0.967611
0.631347 0.984470 0.967715
0.755352 0.984600 0.967760
0.884374 0.984600 0.967760
0.984600 0.984600 0.967760
