luts/cinematic-stream-teal-orange.cube
# Cinematic Stream TealOrange
# Full cinematic look: teal shadows, warm skin/highlights, matte blacks.
# Pulls magenta LED accents toward cooler teal while protecting skin tones.
# Use on your webcam / game capture in OBS. Start intensity ~80–100%.
TITLE "Cinematic Stream TealOrange"
LUT_3D_SIZE 9
DOMAIN_MIN 0.000000 0.000000 0.000000
DOMAIN_MAX 1.000000 1.000000 1.000000
0.000491 0.035531 0.068988
0.119627 0.036051 0.069336
0.237211 0.033056 0.099288
0.354206 0.024919 0.168831
0.457073 0.019742 0.213010
0.580071 0.016405 0.228581
0.723550 0.010771 0.243907
0.868008 0.007592 0.256999
0.968088 0.004425 0.257304
0.006001 0.161420 0.067441
0.130991 0.161926 0.064471
0.249198 0.162214 0.060436
0.363946 0.162172 0.047309
0.465738 0.165353 0.034542
0.590779 0.167822 0.020682
0.734781 0.167938 0.005097
0.876583 0.175968 0.003398
0.967357 0.178400 0.003924
0.024125 0.275177 0.056743
0.155470 0.275883 0.052941
0.273053 0.276803 0.049907
0.384971 0.274033 0.042731
0.486166 0.268955 0.026170
0.613261 0.275525 0.011783
0.753833 0.290040 0.004616
0.890188 0.300280 0.005513
0.967078 0.295851 0.005993
0.051954 0.383503 0.047256
0.180443 0.384613 0.045884
0.294464 0.385958 0.045935
0.401194 0.387559 0.047359
0.495660 0.384334 0.043060
0.615864 0.377724 0.017048
0.752293 0.382250 0.006296
0.890626 0.394104 0.006768
0.967927 0.391097 0.006580
0.072411 0.481461 0.046702
0.195540 0.483094 0.049981
0.304957 0.484875 0.054080
0.408570 0.486802 0.058220
0.500437 0.488893 0.059431
0.614961 0.486793 0.036437
0.750320 0.477768 0.006747
0.889526 0.481335 0.006665
0.968887 0.471723 0.006389
0.071979 0.599774 0.043659
0.194242 0.601805 0.044082
0.305098 0.603574 0.044060
0.411538 0.605163 0.043814
0.507239 0.606634 0.043087
0.620693 0.608569 0.039370
0.752166 0.607075 0.017814
0.893523 0.597636 0.006157
0.969967 0.579298 0.005812
0.055227 0.734974 0.024718
0.183842 0.735978 0.023676
0.300829 0.737029 0.022284
0.413100 0.738124 0.020625
0.513529 0.739150 0.018930
0.631617 0.740386 0.016744
0.762223 0.741776 0.013903
0.901642 0.740719 0.008931
0.970983 0.711820 0.004596
0.060762 0.872772 0.018459
0.191643 0.874218 0.016175
0.310269 0.875548 0.013939
0.423727 0.876807 0.011711
0.524897 0.877899 0.009694
0.643478 0.879115 0.007345
0.774139 0.880340 0.004844
0.912650 0.881466 0.003101
0.971701 0.857791 0.002615
0.069096 0.970928 0.009601
0.196782 0.971162 0.007095
0.312111 0.971348 0.004913
0.422066 0.971504 0.003363
0.519827 0.971626 0.002933
0.634075 0.971747 0.002397
0.759542 0.971853 0.001766
0.892071 0.971936 0.001054
0.971971 0.971971 0.000601
0.000716 0.035690 0.196137
0.106764 0.033959 0.200648
0.230488 0.029118 0.243346
0.328604 0.003174 0.486914
0.423700 0.003445 0.556361
0.580003 0.004313 0.586897
0.724241 0.001615 0.612290
0.866799 0.001946 0.627005
0.967883 0.002329 0.614461
0.007175 0.161577 0.191247
0.133285 0.162162 0.187303
0.253978 0.163042 0.195782
0.372482 0.159197 0.245962
0.473774 0.156761 0.266209
0.590441 0.155574 0.277151
0.731136 0.150788 0.290761
0.857175 0.305463 0.098884
0.947414 0.315913 0.084103
0.027298 0.275382 0.177926
0.158488 0.276197 0.173517
0.275814 0.277223 0.170042
0.388709 0.276201 0.161649
0.490122 0.278387 0.146530
0.604066 0.283823 0.141168
0.742545 0.285291 0.128618
0.886849 0.286245 0.120124
0.967086 0.278953 0.114668
0.055012 0.383837 0.167008
0.182953 0.385080 0.165388
0.296372 0.386551 0.165316
0.402432 0.388277 0.166710
0.496908 0.384314 0.161914
0.608884 0.382836 0.150555
0.747819 0.383825 0.122261
0.891716 0.388143 0.105442
0.967878 0.377863 0.099551
0.074761 0.481817 0.166467
0.197077 0.483605 0.169772
0.306250 0.485507 0.173387
0.409617 0.487553 0.177068
0.501262 0.489740 0.177995
0.611223 0.485699 0.170992
0.746064 0.480020 0.139595
0.892209 0.478716 0.112730
0.968884 0.462559 0.094191
0.077367 0.598538 0.169417
0.205497 0.597973 0.178274
0.312704 0.600774 0.178787
0.416173 0.603323 0.178859
0.509526 0.605580 0.178405
0.620318 0.608209 0.176813
0.750375 0.604977 0.153730
0.896144 0.596499 0.124325
0.970003 0.573197 0.105612
0.058240 0.734264 0.154203
0.197283 0.731115 0.164922
0.310660 0.733372 0.163205
0.419892 0.735492 0.161121
0.517962 0.737321 0.158954
0.633709 0.739364 0.156113
0.762499 0.741631 0.150196
0.903713 0.738319 0.133721
0.971028 0.707736 0.116293
0.061667 0.873258 0.145917
0.192779 0.874667 0.143803
0.311399 0.876023 0.141566
0.424850 0.877286 0.139374
0.526005 0.878364 0.137419
0.644546 0.879550 0.135178
0.775129 0.880726 0.132835
0.913510 0.881783 0.130572
0.971743 0.857997 0.125240
0.070044 0.971011 0.133783
0.197684 0.971234 0.131389
0.312939 0.971412 0.129335
0.422792 0.971560 0.127526
0.520438 0.971673 0.126085
0.634520 0.971785 0.124653
0.759765 0.971882 0.123463
0.892070 0.971956 0.122696
0.971985 0.971985 0.122295
0.000948 0.035862 0.310076
0.086375 0.029879 0.331831
0.159080 0.020196 0.448143
0.271609 0.002346 0.530424
0.286969 0.000730 0.969119
0.456803 0.001082 0.942597
0.627151 0.001448 0.855680
0.812285 0.002057 0.885096
0.954893 0.002635 0.905653
0.008319 0.161738 0.302054
0.135473 0.162399 0.297266
0.218470 0.166674 0.317379
0.295977 0.170859 0.474317
0.433814 0.148166 0.550993
0.617324 0.132682 0.611148
0.762907 0.124211 0.632261
0.911546 0.117919 0.650272
0.967387 0.107425 0.621862
0.030191 0.275596 0.286482
0.161202 0.276512 0.281564
0.278263 0.277636 0.277726
0.391551 0.287486 0.274338
0.492044 0.315469 0.265333
0.603175 0.341934 0.255837
0.725342 0.367554 0.246700
0.873974 0.391804 0.224150
0.956483 0.400070 0.203196
0.057687 0.384175 0.274384
0.185099 0.385540 0.272577
0.297943 0.387126 0.272426
0.403370 0.388966 0.273822
0.499782 0.387998 0.268445
0.610941 0.393605 0.260249
0.732230 0.399580 0.258408
0.881635 0.399741 0.244380
0.968152 0.386565 0.229668
0.076358 0.482319 0.273575
0.198222 0.484221 0.276627
0.307282 0.486207 0.279748
0.410397 0.488430 0.282418
0.502114 0.490570 0.283593
0.613473 0.486890 0.276473
0.740513 0.487487 0.261221
0.892286 0.489886 0.229990
0.969150 0.475058 0.212765
0.077460 0.599324 0.277683
0.205875 0.598901 0.284299
0.313182 0.601641 0.285289
0.416935 0.604197 0.285709
0.510523 0.606449 0.285592
0.621514 0.609027 0.284903
0.748588 0.604696 0.273841
0.896545 0.600123 0.241342
0.970139 0.577746 0.214533
0.058604 0.734620 0.268094
0.201988 0.730273 0.279013
0.319458 0.730794 0.283284
0.426229 0.733669 0.281589
0.522304 0.736105 0.279712
0.635957 0.738779 0.277125
0.762628 0.741542 0.272710
0.904632 0.736883 0.249820
0.971093 0.707252 0.225466
0.062505 0.873700 0.260556
0.196114 0.874192 0.260547
0.318466 0.873956 0.263240
0.429940 0.875854 0.260553
0.529637 0.877399 0.258122
0.646806 0.879017 0.255295
0.776258 0.880537 0.252293
0.914002 0.881922 0.247817
0.971779 0.858160 0.237560
0.070878 0.971082 0.245492
0.198467 0.971297 0.243208
0.313644 0.971467 0.241276
0.423395 0.971607 0.239605
0.520927 0.971714 0.238304
0.634848 0.971818 0.237055
0.759883 0.971907 0.236092
0.892066 0.971971 0.235501
0.971995 0.971995 0.235150
0.001195 0.036052 0.418151
0.084157 0.028899 0.439214
0.133515 0.010893 0.671108
0.210209 0.000443 0.748218
0.304122 0.000642 0.808115
0.330026 0.000821 0.969005
0.356955 0.000881 0.968935
0.582313 0.001460 0.968401
0.745842 0.001972 0.968068
0.009479 0.161909 0.407051
0.137654 0.162646 0.401487
0.208414 0.161936 0.426669
0.256756 0.158937 0.458893
0.354197 0.166952 0.671920
0.482331 0.141568 0.938108
0.698461 0.110176 0.917321
0.893687 0.093182 0.951627
0.967374 0.080924 0.920128
0.032968 0.275829 0.389432
0.163775 0.276842 0.384062
0.280551 0.278061 0.379906
0.382688 0.280087 0.398713
0.466245 0.280727 0.534608
0.622028 0.265379 0.632151
0.755359 0.259859 0.663305
0.909653 0.248243 0.704932
0.967078 0.227472 0.687036
0.060156 0.384531 0.376304
0.187032 0.386013 0.374350
0.299300 0.387710 0.374150
0.404103 0.389659 0.375572
0.498739 0.394634 0.376728
0.611241 0.417540 0.375307
0.735698 0.452525 0.367282
0.872077 0.482458 0.353371
0.959895 0.485424 0.323609
0.077715 0.482836 0.375321
0.199337 0.484833 0.377964
0.308290 0.486898 0.380614
0.411090 0.489261 0.382830
0.502898 0.491333 0.384405
0.617715 0.492429 0.377838
0.742017 0.499257 0.369895
0.877557 0.503636 0.363500
0.966010 0.487278 0.340355
0.077530 0.600053 0.380944
0.206088 0.599806 0.385387
0.313602 0.602504 0.386785
0.417651 0.605053 0.387536
0.511483 0.607290 0.387728
0.622738 0.609841 0.387420
0.751256 0.606508 0.377446
0.893899 0.607694 0.356519
0.968808 0.586259 0.320962
0.059007 0.734972 0.376494
0.202553 0.731076 0.383492
0.320662 0.731589 0.386695
0.427524 0.734444 0.385479
0.523643 0.736857 0.384052
0.637302 0.739502 0.382011
0.763792 0.742150 0.379366
0.904296 0.736792 0.363420
0.970204 0.708599 0.332277
0.063321 0.874125 0.369672
0.197005 0.874675 0.369167
0.323795 0.872846 0.374654
0.436445 0.874072 0.375085
0.534316 0.876146 0.372597
0.649679 0.878282 0.369581
0.777565 0.880242 0.366218
0.914117 0.881914 0.361541
0.971510 0.856009 0.344547
0.071653 0.971148 0.351833
0.199182 0.971354 0.349663
0.315968 0.971127 0.349441
0.426223 0.971094 0.349030
0.522854 0.971360 0.347423
0.635910 0.971611 0.345814
0.760214 0.971817 0.344448
0.892086 0.971958 0.343260
0.972000 0.972000 0.342637
0.001249 0.036160 0.514676
0.089463 0.029659 0.528060
0.134942 0.010662 0.704411
0.172676 0.000514 0.969437
0.258070 0.000574 0.835737
0.368398 0.000907 0.968906
0.323822 0.000808 0.969021
0.331134 0.000823 0.969002
0.518954 0.001283 0.968542
0.010023 0.162105 0.500729
0.139651 0.162884 0.493212
0.213196 0.158737 0.510736
0.251304 0.170205 0.620607
0.300096 0.149568 0.586742
0.443808 0.148524 0.945392
0.392609 0.083046 0.968224
0.614954 0.066648 0.967912
0.752798 0.056350 0.967743
0.035270 0.276086 0.480282
0.166030 0.277158 0.474345
0.282531 0.278462 0.469932
0.339438 0.288643 0.509033
0.408010 0.284174 0.544074
0.467707 0.306148 0.828650
0.673558 0.260595 0.879134
0.874093 0.229802 0.951993
0.967074 0.204034 0.951407
0.062267 0.384873 0.466127
0.188644 0.386460 0.464067
0.300380 0.388257 0.463847
0.404487 0.390327 0.465346
0.500976 0.394197 0.480334
0.625433 0.394004 0.589818
0.753849 0.386246 0.688083
0.893364 0.377927 0.741974
0.962672 0.348219 0.729485
0.078828 0.483320 0.465007
0.200343 0.485395 0.467192
0.309202 0.487530 0.469427
0.411681 0.489973 0.471789
0.503569 0.491986 0.473717
0.615307 0.497462 0.474895
0.742655 0.516781 0.471857
0.879580 0.550935 0.462624
0.960923 0.555613 0.433356
0.077576 0.600681 0.472346
0.206256 0.600585 0.474942
0.314008 0.603266 0.476667
0.418311 0.605806 0.477716
0.512353 0.608027 0.478188
0.623834 0.610551 0.478221
0.755737 0.611571 0.468765
0.894644 0.618766 0.454936
0.964759 0.600469 0.430493
0.059408 0.735294 0.472260
0.203074 0.731783 0.475935
0.321308 0.732453 0.477813
0.428343 0.735265 0.476955
0.524598 0.737633 0.475858
0.638394 0.740216 0.474220
0.765006 0.742785 0.472038
0.905814 0.738354 0.459474
0.968349 0.712233 0.428658
0.064054 0.874502 0.466077
0.197792 0.875099 0.465149
0.324470 0.873507 0.468656
0.438518 0.874224 0.469910
0.536033 0.876342 0.467831
0.650979 0.878519 0.465252
0.778445 0.880502 0.462312
0.914488 0.882090 0.459141
0.971097 0.853863 0.439128
0.072320 0.971203 0.445798
0.199787 0.971403 0.443734
0.316450 0.971197 0.443303
0.429612 0.970484 0.445712
0.525511 0.970851 0.444334
0.637300 0.971325 0.442251
0.760598 0.971709 0.440280
0.892093 0.971962 0.438205
0.972000 0.972000 0.437657
0.000733 0.035970 0.634136
0.096022 0.030294 0.641141
0.138359 0.011027 0.774108
0.180545 0.000528 0.969415
0.200400 0.000563 0.969358
0.310739 0.000749 0.941232
0.369190 0.000908 0.968904
0.332285 0.000826 0.968999
0.265573 0.000687 0.969177
0.008402 0.162287 0.619102
0.142030 0.163152 0.602330
0.219362 0.157501 0.613988
0.258427 0.157124 0.706328
0.303722 0.160008 0.838071
0.378152 0.137734 0.809301
0.422950 0.097604 0.968070
0.272172 0.033688 0.968871
0.444727 0.027136 0.968514
0.033617 0.276993 0.595090
0.168680 0.277565 0.581260
0.284824 0.278971 0.576569
0.337449 0.280320 0.608288
0.373427 0.295519 0.677184
0.449460 0.284855 0.723816
0.478103 0.259443 0.967063
0.538638 0.200163 0.967387
0.671557 0.174503 0.967338
0.059873 0.386301 0.576927
0.190432 0.387028 0.570400
0.301508 0.388942 0.570183
0.405472 0.391077 0.571321
0.466316 0.399332 0.596262
0.557757 0.397674 0.637649
0.620766 0.415531 0.880852
0.780918 0.364763 0.960527
0.889189 0.318563 0.964575
0.074214 0.485383 0.574235
0.201564 0.486088 0.572810
0.309874 0.488401 0.574902
0.412356 0.490794 0.577750
0.504265 0.492751 0.580149
0.616137 0.496200 0.591488
0.758076 0.497961 0.699903
0.900524 0.490160 0.810109
0.958524 0.456030 0.819488
0.077612 0.601407 0.581121
0.206449 0.601490 0.581600
0.314529 0.604167 0.583687
0.419125 0.606693 0.585099
0.513410 0.608893 0.585908
0.625151 0.611380 0.586354
0.753884 0.617896 0.585281
0.892099 0.629292 0.579496
0.963574 0.626248 0.553964
0.059935 0.735688 0.586007
0.203717 0.732618 0.585907
0.322082 0.733464 0.586331
0.429314 0.736222 0.585903
0.525722 0.738533 0.585204
0.639672 0.741038 0.584051
0.766418 0.743510 0.582425
0.911036 0.743823 0.570550
0.967453 0.719411 0.538255
0.064938 0.874951 0.580588
0.198725 0.875601 0.579182
0.325248 0.874274 0.580497
0.439221 0.875092 0.580795
0.536789 0.877117 0.579177
0.651771 0.879176 0.577159
0.779237 0.881018 0.574861
0.915232 0.882441 0.572438
0.970977 0.851813 0.548751
0.073088 0.971267 0.557428
0.200472 0.971458 0.555499
0.316972 0.971277 0.554845
0.429747 0.970671 0.556252
0.526699 0.970761 0.556178
0.637821 0.971307 0.554327
0.760615 0.971741 0.552495
0.892043 0.972000 0.550484
0.972000 0.972000 0.550484
0.000459 0.035768 0.765415
0.103321 0.031036 0.769338
0.143610 0.011889 0.868061
0.176593 0.000521 0.969426
0.178947 0.000525 0.969419
0.235172 0.000627 0.969260
0.333638 0.000829 0.968996
0.369342 0.000909 0.968904
0.356180 0.000879 0.968937
0.007219 0.162195 0.751287
0.143581 0.162693 0.733950
0.226813 0.156281 0.741136
0.265993 0.149054 0.821666
0.298467 0.149511 0.953445
0.343425 0.130453 0.968013
0.420778 0.108381 0.968007
0.402381 0.059479 0.968368
0.318088 0.021286 0.968860
0.030204 0.277727 0.729553
0.169244 0.277897 0.707735
0.287275 0.279577 0.694374
0.343098 0.275986 0.717586
0.376907 0.283165 0.788711
0.427428 0.284788 0.860805
0.516072 0.270371 0.932922
0.486239 0.205338 0.967426
0.356150 0.144952 0.967904
0.050616 0.388632 0.711476
0.189251 0.388041 0.693401
0.302563 0.389749 0.687759
0.406342 0.391976 0.688436
0.451701 0.395388 0.717386
0.495585 0.414754 0.786375
0.578536 0.401978 0.824644
0.534327 0.343349 0.960138
0.550268 0.284742 0.965809
0.058066 0.489670 0.707897
0.198239 0.487793 0.694289
0.310470 0.489365 0.692176
0.413071 0.491670 0.695546
0.505161 0.493534 0.698358
0.585575 0.502130 0.723826
0.697374 0.499717 0.765759
0.733854 0.489557 0.955359
0.773753 0.425145 0.957021
0.060121 0.606534 0.710421
0.201370 0.603785 0.703046
0.315152 0.605162 0.702613
0.420064 0.607668 0.704435
0.514608 0.609840 0.705625
0.626599 0.612290 0.706561
0.753838 0.615939 0.713125
0.907149 0.619794 0.802593
0.962919 0.585113 0.831217
0.060577 0.736140 0.712047
0.204457 0.733538 0.707984
0.322943 0.734563 0.706948
0.430382 0.737256 0.707004
0.526951 0.739500 0.706754
0.641058 0.741916 0.706146
0.767947 0.744279 0.705148
0.909265 0.751224 0.702312
0.968303 0.730880 0.673591
0.065927 0.875448 0.707488
0.199751 0.876151 0.705580
0.326074 0.875100 0.704672
0.439947 0.876012 0.704072
0.537565 0.877931 0.702972
0.652573 0.879856 0.701583
0.780026 0.881537 0.700003
0.915957 0.882775 0.698371
0.971174 0.851707 0.669425
0.073903 0.971335 0.681154
0.201182 0.971516 0.679383
0.317481 0.971362 0.678524
0.429806 0.970866 0.679001
0.526492 0.970985 0.678755
0.637505 0.971475 0.677562
0.760343 0.971848 0.676377
0.892043 0.972000 0.675463
0.972000 0.972000 0.675463
0.000775 0.035782 0.901071
0.111098 0.032467 0.901388
0.147228 0.012705 0.959358
0.168389 0.000506 0.969449
0.179990 0.000527 0.969416
0.174204 0.000517 0.969433
0.262976 0.000682 0.969184
0.342262 0.000848 0.968973
0.368710 0.000907 0.968905
0.009589 0.162102 0.885005
0.145071 0.161856 0.878126
0.234822 0.155244 0.882580
0.271839 0.144251 0.937904
0.283184 0.129661 0.968131
0.262279 0.106833 0.968328
0.337042 0.090009 0.968290
0.397376 0.069695 0.968306
0.392683 0.038611 0.968544
0.032175 0.277699 0.864203
0.167497 0.277616 0.855488
0.288884 0.279119 0.833508
0.350484 0.272693 0.855061
0.384896 0.271399 0.919787
0.390340 0.260137 0.967119
0.437836 0.241708 0.967346
0.491733 0.215595 0.967381
0.471829 0.168400 0.967602
0.049040 0.389155 0.849506
0.181525 0.389199 0.842308
0.301119 0.390344 0.823056
0.407295 0.392953 0.812895
0.455025 0.391406 0.835555
0.494931 0.400874 0.909400
0.530232 0.393760 0.954979
0.581948 0.360795 0.958508
0.546357 0.294685 0.965095
0.053104 0.490901 0.847255
0.184619 0.490736 0.842179
0.306626 0.490744 0.826774
0.413795 0.492565 0.821489
0.506061 0.494368 0.824759
0.567223 0.499262 0.857601
0.624226 0.517087 0.921181
0.712436 0.497311 0.951162
0.622349 0.416510 0.954930
0.053868 0.608250 0.848776
0.185696 0.607995 0.845728
0.310733 0.607170 0.835354
0.421099 0.608693 0.831983
0.515909 0.610831 0.833589
0.628207 0.613220 0.835009
0.730484 0.622593 0.856094
0.875564 0.621040 0.915449
0.839149 0.565557 0.960625
0.057631 0.737564 0.848015
0.192672 0.737629 0.844506
0.319741 0.736704 0.838131
0.431507 0.738326 0.836471
0.528235 0.740495 0.836706
0.642498 0.742810 0.836686
0.769510 0.745045 0.836361
0.906951 0.747802 0.839791
0.968637 0.724298 0.843563
0.066990 0.875977 0.842706
0.200829 0.876730 0.840302
0.326907 0.875950 0.837264
0.440655 0.876941 0.835887
0.538313 0.878744 0.835347
0.653335 0.880520 0.834635
0.780758 0.882025 0.833829
0.916645 0.883088 0.833067
0.971469 0.858656 0.806993
0.074725 0.971403 0.813014
0.201878 0.971574 0.811425
0.317939 0.971448 0.810397
0.429761 0.971057 0.810095
0.526151 0.971199 0.809811
0.637045 0.971631 0.809333
0.760027 0.971940 0.808782
0.892043 0.972000 0.808569
0.972000 0.972000 0.808569
0.001160 0.034819 0.969411
0.113629 0.032478 0.969300
0.141555 0.012416 0.969412
0.161709 0.000495 0.969469
0.176801 0.000521 0.969425
0.179748 0.000526 0.969417
0.201230 0.000564 0.969356
0.291061 0.000738 0.969108
0.345289 0.000855 0.968965
0.011805 0.158017 0.966475
0.144169 0.157881 0.965447
0.234893 0.151275 0.968084
0.257422 0.131780 0.968167
0.264605 0.114434 0.968270
0.256618 0.094201 0.968431
0.248211 0.073419 0.968607
0.332589 0.059903 0.968518
0.376625 0.048421 0.968506
0.033913 0.271339 0.963444
0.165345 0.271362 0.962616
0.283388 0.271786 0.960982
0.346559 0.261803 0.967110
0.361766 0.245171 0.967415
0.362583 0.226035 0.967491
0.340917 0.204936 0.967613
0.415661 0.190812 0.967575
0.460124 0.178040 0.967573
0.049170 0.380876 0.961497
0.175945 0.381174 0.961256
0.290412 0.382258 0.958878
0.402074 0.387294 0.947496
0.450601 0.378357 0.955548
0.462592 0.358280 0.958235
0.451024 0.335985 0.961007
0.495785 0.318951 0.962890
0.541188 0.304657 0.964261
0.052229 0.480637 0.961157
0.177315 0.480963 0.961342
0.291733 0.481786 0.959757
0.405553 0.486124 0.949744
0.501891 0.490118 0.944136
0.548576 0.479162 0.951480
0.550421 0.458913 0.951793
0.578478 0.442277 0.952884
0.625440 0.427000 0.954429
0.052713 0.595099 0.962310
0.178158 0.595649 0.962486
0.294274 0.596794 0.960835
0.411008 0.600242 0.953428
0.510174 0.603603 0.949322
0.620988 0.605543 0.950212
0.682833 0.599477 0.959908
0.735111 0.589115 0.960207
0.798822 0.573686 0.960407
0.057164 0.722113 0.961727
0.184938 0.723691 0.961015
0.303671 0.725360 0.958924
0.421687 0.727806 0.954140
0.521380 0.730129 0.952150
0.633916 0.732140 0.952478
0.757965 0.733991 0.952897
0.874658 0.737173 0.960660
0.960244 0.723034 0.968902
0.066724 0.859396 0.958620
0.195651 0.861404 0.957551
0.315565 0.862885 0.955746
0.431937 0.864200 0.953457
0.530516 0.865695 0.952787
0.643739 0.867303 0.952770
0.769127 0.868616 0.952753
0.902713 0.869406 0.952799
0.971632 0.858952 0.941226
0.075494 0.971468 0.944680
0.202504 0.971628 0.943283
0.318304 0.971529 0.942146
0.429599 0.971232 0.941286
0.525679 0.971390 0.941111
0.636540 0.971763 0.941300
0.759731 0.972000 0.941382
0.892043 0.972000 0.941382
0.972000 0.972000 0.941382
