luts/cinematic-stream-teal-orange-soft.cube
# Cinematic Stream TealOrange Soft
# Softer live-safe blend of the cinematic look (~55% strength).
# Better default for long streams / bright key light. Bump OBS intensity if needed.
TITLE "Cinematic Stream TealOrange Soft"
LUT_3D_SIZE 33
DOMAIN_MIN 0.000000 0.000000 0.000000
DOMAIN_MAX 1.000000 1.000000 1.000000
0.000270 0.019542 0.037944
0.028753 0.019593 0.037973
0.060477 0.019664 0.038018
0.091505 0.019743 0.038072
0.122045 0.019828 0.038135
0.152335 0.019793 0.039298
0.182546 0.019505 0.042508
0.212752 0.018960 0.047666
0.242966 0.018181 0.054608
0.273184 0.017206 0.063056
0.303384 0.016090 0.072609
0.333528 0.014897 0.082752
0.363563 0.013706 0.092857
0.393426 0.012604 0.102198
0.420375 0.011829 0.108777
0.447827 0.011214 0.114031
0.476390 0.010858 0.117155
0.505895 0.010580 0.119199
0.536432 0.010185 0.121329
0.567923 0.009665 0.123513
0.600289 0.009023 0.125719
0.633422 0.008278 0.127918
0.667163 0.007467 0.130076
0.701281 0.006652 0.132163
0.735453 0.005924 0.134149
0.769255 0.005404 0.136009
0.802972 0.004995 0.137803
0.836944 0.004585 0.139581
0.871154 0.004176 0.141349
0.905585 0.003766 0.143117
0.937483 0.003337 0.144126
0.964006 0.002883 0.143679
0.982449 0.002434 0.141517
0.000630 0.052106 0.038118
0.029073 0.052166 0.038178
0.060752 0.052248 0.038255
0.091799 0.052333 0.038282
0.122428 0.052420 0.038253
0.152765 0.052751 0.038156
0.182945 0.053761 0.037973
0.212920 0.055626 0.037611
0.242656 0.058434 0.036983
0.272079 0.062139 0.036019
0.301140 0.066589 0.034675
0.329841 0.071550 0.032948
0.358244 0.076723 0.030885
0.386463 0.081777 0.028587
0.412201 0.085620 0.026617
0.438684 0.089106 0.024599
0.466714 0.092031 0.022610
0.495646 0.094805 0.020665
0.525448 0.097576 0.018648
0.556227 0.100226 0.016578
0.587959 0.102766 0.014309
0.620612 0.105228 0.011663
0.654034 0.107634 0.008717
0.687977 0.110027 0.005614
0.722067 0.112488 0.002581
0.755490 0.116344 0.001656
0.788363 0.120825 0.001759
0.821416 0.125378 0.001906
0.854684 0.129991 0.002060
0.888149 0.134662 0.002222
0.921792 0.139390 0.002391
0.952333 0.143358 0.002553
0.970557 0.144149 0.002600
0.001137 0.083657 0.038305
0.029786 0.083712 0.038223
0.061661 0.083788 0.038111
0.092901 0.083867 0.037952
0.123706 0.083949 0.037752
0.154182 0.084035 0.037516
0.184395 0.084125 0.037248
0.214416 0.084233 0.036864
0.244289 0.084388 0.036308
0.274033 0.084604 0.035580
0.303659 0.084890 0.034688
0.333176 0.085244 0.033649
0.362587 0.085664 0.032484
0.391896 0.086140 0.031223
0.418490 0.086567 0.030135
0.445857 0.088783 0.028597
0.474603 0.091499 0.026811
0.504100 0.094305 0.024935
0.534537 0.097050 0.022909
0.565956 0.099622 0.020792
0.598320 0.102061 0.018453
0.631557 0.104425 0.015786
0.665477 0.106745 0.012871
0.699782 0.109087 0.009858
0.734038 0.111547 0.006974
0.767665 0.114261 0.004535
0.801041 0.117133 0.002336
0.834466 0.121281 0.001702
0.867988 0.126085 0.001852
0.901666 0.130941 0.002009
0.934640 0.135672 0.002171
0.960632 0.138953 0.002309
0.978182 0.139927 0.002351
0.002036 0.114574 0.037947
0.031351 0.114624 0.037676
0.063392 0.114696 0.037403
0.094780 0.114772 0.037100
0.125717 0.114852 0.036772
0.156312 0.114937 0.036420
0.186632 0.115025 0.036044
0.216757 0.115083 0.035530
0.246765 0.115127 0.034706
0.276661 0.115231 0.033604
0.306423 0.115426 0.032351
0.336073 0.115711 0.030927
0.365610 0.116084 0.029372
0.395032 0.116538 0.027735
0.421709 0.116962 0.026356
0.449013 0.117444 0.024915
0.477635 0.117999 0.023388
0.507166 0.118556 0.021851
0.537756 0.118972 0.020216
0.569313 0.119176 0.018602
0.601811 0.119225 0.016803
0.635157 0.119161 0.014767
0.669153 0.119023 0.012590
0.703500 0.118874 0.010416
0.737782 0.118809 0.008444
0.771471 0.118955 0.006916
0.805017 0.119196 0.005584
0.838776 0.119439 0.004263
0.872913 0.121900 0.002281
0.907269 0.126427 0.001763
0.938325 0.130988 0.001912
0.964603 0.134733 0.002048
0.981810 0.135801 0.002086
0.003300 0.145031 0.037093
0.033606 0.145081 0.036681
0.065770 0.145152 0.036288
0.097264 0.145228 0.035880
0.128295 0.145309 0.035459
0.158971 0.145396 0.035026
0.189360 0.145486 0.034581
0.219531 0.145523 0.034042
0.249559 0.145468 0.033240
0.279495 0.145363 0.032054
0.309371 0.145275 0.030415
0.339204 0.145271 0.028297
0.368920 0.145445 0.026020
0.398420 0.145803 0.024036
0.425151 0.146178 0.022400
0.452498 0.146636 0.020726
0.481156 0.147194 0.018998
0.510920 0.147738 0.017158
0.541754 0.148169 0.015250
0.573512 0.148428 0.013422
0.606178 0.148552 0.011375
0.639618 0.148573 0.009124
0.673591 0.148535 0.006806
0.707752 0.148514 0.004615
0.741629 0.148616 0.002803
0.774939 0.148960 0.001569
0.808390 0.150322 0.001666
0.842041 0.151681 0.001765
0.875870 0.153032 0.001869
0.909860 0.154368 0.001975
0.939746 0.154873 0.002068
0.965926 0.154677 0.002149
0.982046 0.154370 0.002158
0.004863 0.175127 0.035878
0.036402 0.175184 0.035371
0.068650 0.175257 0.034894
0.100214 0.175335 0.034416
0.131302 0.175420 0.033936
0.162025 0.175510 0.033454
0.192449 0.175607 0.032972
0.222628 0.175683 0.032465
0.252642 0.175596 0.031730
0.282546 0.175372 0.030644
0.312374 0.175074 0.029132
0.342144 0.174775 0.027165
0.371863 0.174549 0.024760
0.401525 0.174458 0.021974
0.428437 0.174522 0.019450
0.456015 0.174745 0.016655
0.484810 0.175257 0.014528
0.514795 0.175805 0.012370
0.545813 0.176302 0.010221
0.577705 0.176689 0.008201
0.610459 0.176949 0.005948
0.643866 0.177335 0.003882
0.677604 0.178394 0.002878
0.711440 0.179496 0.002086
0.744940 0.180728 0.001753
0.778068 0.182091 0.001846
0.811395 0.183442 0.001950
0.844906 0.184775 0.002057
0.878582 0.186083 0.002167
0.912403 0.187359 0.002280
0.941161 0.187427 0.002372
0.967222 0.186897 0.002453
0.981989 0.186273 0.002448
0.006666 0.204929 0.034417
0.039613 0.204998 0.033860
0.071909 0.205075 0.033333
0.103507 0.205159 0.032817
0.134619 0.205249 0.032309
0.165356 0.205345 0.031809
0.195784 0.205449 0.031317
0.225951 0.205559 0.030835
0.255906 0.205598 0.030287
0.285748 0.205327 0.029342
0.315497 0.204897 0.027994
0.345175 0.204386 0.026211
0.374793 0.203876 0.024004
0.404346 0.203448 0.021429
0.431165 0.203203 0.019088
0.458641 0.203087 0.016489
0.487679 0.203118 0.013357
0.518097 0.203279 0.009638
0.549543 0.204575 0.007399
0.581470 0.206181 0.006552
0.614088 0.207481 0.005465
0.647328 0.208704 0.004269
0.680942 0.209890 0.003135
0.714589 0.211100 0.002288
0.747820 0.212426 0.002015
0.780794 0.213826 0.002123
0.813962 0.215192 0.002233
0.847300 0.216520 0.002346
0.880787 0.217803 0.002462
0.914405 0.219035 0.002581
0.942231 0.218688 0.002671
0.967882 0.217793 0.002750
0.981946 0.216914 0.002734
0.009553 0.234491 0.032828
0.043124 0.234570 0.032249
0.075433 0.234654 0.031704
0.107034 0.234745 0.031180
0.138138 0.234842 0.030673
0.168857 0.234947 0.030183
0.199260 0.235059 0.029710
0.229393 0.235179 0.029253
0.259290 0.235306 0.028815
0.289003 0.235291 0.028250
0.318646 0.234796 0.027102
0.348206 0.234144 0.025534
0.377694 0.233425 0.023555
0.407111 0.232731 0.021218
0.433813 0.232236 0.019076
0.461168 0.231838 0.016685
0.490144 0.231546 0.013654
0.520480 0.231400 0.009994
0.551798 0.232606 0.008229
0.583936 0.234485 0.007218
0.616868 0.236503 0.005967
0.650403 0.238654 0.004616
0.683862 0.240036 0.003369
0.717282 0.241385 0.002487
0.750234 0.242824 0.002280
0.783031 0.244283 0.002394
0.816007 0.245685 0.002511
0.849138 0.247024 0.002630
0.882404 0.248297 0.002751
0.915785 0.249499 0.002875
0.942908 0.248790 0.002964
0.967851 0.247466 0.003035
0.981915 0.246423 0.003015
0.013269 0.263847 0.031209
0.046831 0.263935 0.030631
0.079120 0.264028 0.030098
0.110692 0.264128 0.029595
0.141758 0.264236 0.029117
0.172431 0.264351 0.028664
0.202781 0.264473 0.028235
0.232852 0.264604 0.027829
0.262679 0.264742 0.027449
0.292287 0.264888 0.027094
0.321735 0.264814 0.026543
0.351151 0.264083 0.025223
0.380484 0.263218 0.023502
0.409739 0.262320 0.021426
0.436303 0.261623 0.019501
0.463524 0.260989 0.017316
0.492391 0.260425 0.014394
0.522591 0.260012 0.010801
0.553755 0.260921 0.009122
0.585762 0.262399 0.007917
0.618544 0.264039 0.006481
0.651906 0.265830 0.004971
0.685575 0.267788 0.003609
0.719180 0.269956 0.002690
0.752108 0.272022 0.002539
0.784696 0.273560 0.002659
0.817448 0.275013 0.002782
0.850341 0.276379 0.002906
0.883353 0.277654 0.003032
0.916484 0.278846 0.003160
0.943227 0.277917 0.003250
0.967829 0.276357 0.003318
0.981893 0.275218 0.003296
0.017118 0.293023 0.029637
0.050637 0.293121 0.029092
0.082876 0.293225 0.028600
0.114389 0.293337 0.028145
0.145388 0.293456 0.027722
0.175987 0.293583 0.027331
0.206255 0.293718 0.026970
0.236239 0.293861 0.026640
0.265971 0.294012 0.026341
0.295477 0.294171 0.026074
0.324777 0.294338 0.025839
0.353932 0.294227 0.025357
0.383086 0.293270 0.023921
0.412154 0.292222 0.022132
0.438561 0.291363 0.020441
0.465628 0.290531 0.018464
0.494334 0.289737 0.015672
0.524341 0.289087 0.012161
0.555327 0.289487 0.010091
0.587148 0.290545 0.008684
0.619728 0.291784 0.007057
0.652872 0.293191 0.005381
0.686309 0.294777 0.003896
0.719670 0.296580 0.002909
0.752523 0.298658 0.002758
0.785290 0.300910 0.002897
0.818216 0.303260 0.003042
0.850928 0.304713 0.003173
0.883848 0.306111 0.003307
0.916966 0.307460 0.003443
0.943512 0.306434 0.003537
0.967816 0.304682 0.003603
0.981879 0.303454 0.003578
0.021009 0.322041 0.028193
0.054453 0.322152 0.027711
0.086611 0.322269 0.027286
0.118036 0.322394 0.026906
0.148941 0.322526 0.026564
0.179440 0.322666 0.026259
0.209600 0.322815 0.025991
0.239470 0.322972 0.025759
0.269082 0.323137 0.025564
0.298462 0.323311 0.025406
0.327630 0.323493 0.025286
0.356600 0.323684 0.025205
0.385430 0.323593 0.024881
0.414288 0.322441 0.023403
0.440517 0.321456 0.021963
0.467404 0.320459 0.020211
0.495895 0.319465 0.017583
0.525650 0.318601 0.014185
0.556427 0.318300 0.011158
0.588009 0.318918 0.009544
0.620336 0.319734 0.007718
0.653216 0.320731 0.005868
0.686385 0.321917 0.004244
0.719489 0.323323 0.003163
0.752164 0.325033 0.002977
0.784831 0.326973 0.003115
0.817740 0.329078 0.003261
0.850876 0.331335 0.003414
0.884225 0.333732 0.003575
0.917470 0.335509 0.003713
0.943906 0.334341 0.003670
0.967991 0.332364 0.003628
0.982036 0.331065 0.003628
0.024855 0.350920 0.026954
0.058193 0.351046 0.026562
0.090241 0.351178 0.026232
0.121551 0.351317 0.025950
0.152336 0.351464 0.025713
0.182707 0.351620 0.025518
0.212735 0.351784 0.025365
0.242467 0.351956 0.025253
0.271935 0.352137 0.025184
0.301166 0.352327 0.025157
0.330178 0.352525 0.025173
0.358987 0.352732 0.025232
0.387607 0.352948 0.025336
0.416074 0.352980 0.025298
0.442107 0.351901 0.024128
0.468783 0.350768 0.022633
0.497007 0.349600 0.020224
0.526449 0.348536 0.016983
0.556935 0.347695 0.013225
0.588264 0.347543 0.010528
0.620287 0.347912 0.008496
0.652924 0.348496 0.006452
0.685950 0.349310 0.004657
0.719020 0.350389 0.003449
0.751705 0.351792 0.003211
0.784368 0.353447 0.003349
0.817274 0.355288 0.003495
0.850406 0.357299 0.003649
0.883842 0.359449 0.003717
0.917554 0.361728 0.003722
0.944237 0.361271 0.003672
0.968165 0.359529 0.003627
0.982210 0.358158 0.003628
0.028575 0.379677 0.025991
0.061776 0.379820 0.025716
0.093686 0.379968 0.025505
0.124855 0.380124 0.025346
0.155493 0.380287 0.025236
0.185713 0.380459 0.025173
0.215585 0.380640 0.025157
0.245154 0.380829 0.025187
0.274455 0.381027 0.025264
0.303514 0.381234 0.025388
0.332348 0.381450 0.025560
0.360975 0.381674 0.025779
0.389407 0.381907 0.026048
0.417653 0.382150 0.026365
0.443315 0.382356 0.026666
0.469705 0.381453 0.025797
0.497613 0.380134 0.023683
0.526690 0.378879 0.020659
0.556845 0.377812 0.016952
0.588010 0.376878 0.012691
0.619975 0.376498 0.009377
0.652538 0.376709 0.007103
0.685515 0.377170 0.005111
0.718568 0.377911 0.003759
0.751261 0.378987 0.003463
0.783919 0.380337 0.003600
0.816846 0.381889 0.003714
0.850103 0.383613 0.003720
0.883594 0.385507 0.003723
0.917307 0.387557 0.003722
0.944088 0.386768 0.003668
0.968314 0.385161 0.003618
0.982360 0.383853 0.003619
0.032090 0.408326 0.025370
0.065127 0.408487 0.025239
0.096872 0.408653 0.025171
0.127874 0.408827 0.025158
0.158341 0.409008 0.025198
0.188385 0.409198 0.025288
0.218076 0.409396 0.025430
0.247461 0.409604 0.025622
0.276573 0.409820 0.025865
0.305437 0.410045 0.026159
0.334072 0.410279 0.026506
0.362495 0.410522 0.026904
0.390718 0.410775 0.027356
0.418753 0.411035 0.027859
0.444266 0.411256 0.028290
0.470359 0.411496 0.028684
0.497928 0.411021 0.027749
0.526804 0.409556 0.024769
0.556762 0.408240 0.020943
0.587742 0.407063 0.016473
0.619640 0.405987 0.011597
0.652190 0.405412 0.007813
0.685107 0.405501 0.005604
0.718133 0.405884 0.004096
0.750844 0.406611 0.003714
0.783591 0.407620 0.003719
0.816601 0.408856 0.003722
0.849858 0.410298 0.003723
0.883348 0.411930 0.003720
0.917060 0.413735 0.003714
0.943940 0.412599 0.003656
0.968457 0.410696 0.003601
0.982502 0.409251 0.003603
0.034843 0.434623 0.025161
0.067718 0.434801 0.025170
0.099305 0.434984 0.025241
0.130146 0.435173 0.025368
0.160450 0.435370 0.025550
0.190328 0.435576 0.025786
0.219850 0.435791 0.026076
0.249061 0.436014 0.026420
0.277996 0.436247 0.026819
0.306679 0.436488 0.027272
0.335131 0.436739 0.027780
0.363401 0.436996 0.028311
0.391527 0.437259 0.028846
0.419518 0.437527 0.029385
0.445007 0.437753 0.029832
0.471073 0.438000 0.030240
0.498470 0.438302 0.030087
0.527015 0.437852 0.028343
0.556796 0.436326 0.024418
0.587602 0.434944 0.019767
0.619351 0.433675 0.014657
0.651869 0.432509 0.009451
0.684805 0.431962 0.006016
0.717869 0.432022 0.004250
0.750638 0.432432 0.003722
0.783384 0.433150 0.003723
0.816394 0.434116 0.003722
0.849651 0.435307 0.003718
0.883141 0.436705 0.003711
0.916854 0.438293 0.003701
0.943833 0.436866 0.003639
0.968577 0.434714 0.003579
0.982621 0.433212 0.003583
0.037503 0.461619 0.025297
0.070186 0.461817 0.025474
0.101584 0.462018 0.025710
0.132235 0.462225 0.026003
0.162348 0.462440 0.026352
0.192032 0.462664 0.026759
0.221356 0.462896 0.027222
0.250366 0.463138 0.027742
0.279130 0.463386 0.028290
0.307700 0.463640 0.028839
0.336098 0.463899 0.029391
0.364337 0.464163 0.029946
0.392432 0.464433 0.030503
0.420393 0.464708 0.031064
0.445858 0.464940 0.031530
0.471894 0.465194 0.031951
0.499236 0.465515 0.031764
0.527566 0.465874 0.030798
0.556984 0.465494 0.028058
0.587664 0.463895 0.022997
0.619302 0.462415 0.017496
0.651726 0.461041 0.011957
0.684658 0.459785 0.006851
0.717664 0.459256 0.004284
0.750418 0.459324 0.003722
0.783164 0.459718 0.003719
0.816173 0.460383 0.003713
0.849437 0.461299 0.003705
0.882968 0.462462 0.003694
0.916756 0.463854 0.003680
0.943824 0.462107 0.003613
0.968704 0.459637 0.003550
0.982749 0.458140 0.003554
0.039826 0.489804 0.025686
0.072282 0.490023 0.026050
0.103462 0.490244 0.026470
0.133899 0.490469 0.026950
0.163797 0.490702 0.027490
0.193305 0.490940 0.028054
0.222518 0.491182 0.028617
0.251481 0.491429 0.029180
0.280226 0.491681 0.029744
0.308780 0.491938 0.030310
0.337160 0.492201 0.030878
0.365384 0.492468 0.031448
0.393464 0.492741 0.032021
0.421410 0.493019 0.032597
0.446862 0.493253 0.033076
0.472904 0.493543 0.033129
0.500240 0.493891 0.032687
0.528592 0.494301 0.031149
0.557852 0.494702 0.028917
0.588080 0.494462 0.025516
0.619478 0.492736 0.020040
0.651679 0.491131 0.014478
0.684444 0.489648 0.009291
0.717424 0.488317 0.005001
0.750176 0.487772 0.003711
0.782950 0.487811 0.003704
0.816020 0.488167 0.003694
0.849371 0.488815 0.003681
0.882989 0.489734 0.003666
0.916861 0.490902 0.003646
0.943936 0.488743 0.003575
0.968841 0.485853 0.003509
0.982888 0.484448 0.003514
0.041130 0.518972 0.025961
0.073376 0.519201 0.026535
0.104397 0.519427 0.027117
0.134751 0.519653 0.027687
0.164638 0.519883 0.028251
0.194164 0.520116 0.028811
0.223396 0.520353 0.029369
0.252379 0.520594 0.029927
0.281147 0.520840 0.030486
0.309724 0.521091 0.031046
0.338129 0.521347 0.031608
0.366325 0.521654 0.031863
0.394382 0.521988 0.031896
0.422359 0.522313 0.031921
0.447876 0.522574 0.031937
0.473999 0.522844 0.031949
0.501376 0.523135 0.031956
0.529644 0.523493 0.031180
0.558823 0.523920 0.028922
0.588827 0.524310 0.026144
0.619683 0.524245 0.022649
0.651657 0.522387 0.017084
0.684266 0.520664 0.011812
0.717214 0.519096 0.007343
0.750078 0.517728 0.004255
0.782938 0.517217 0.003675
0.816096 0.517244 0.003661
0.849531 0.517590 0.003644
0.883231 0.518230 0.003623
0.917183 0.519141 0.003599
0.944175 0.516477 0.003523
0.968983 0.513061 0.003455
0.983033 0.511865 0.003460
0.041332 0.548977 0.026025
0.073592 0.549195 0.026609
0.104665 0.549408 0.027164
0.135072 0.549622 0.027708
0.165013 0.549838 0.028245
0.194595 0.550057 0.028778
0.223884 0.550280 0.029310
0.252916 0.550513 0.029814
0.281562 0.550848 0.029848
0.310072 0.551172 0.029875
0.338462 0.551487 0.029896
0.366747 0.551792 0.029909
0.394939 0.552089 0.029917
0.423047 0.552377 0.029917
0.448670 0.552609 0.029913
0.474903 0.552848 0.029905
0.502399 0.553106 0.029890
0.530714 0.553373 0.029867
0.559756 0.553718 0.028849
0.589681 0.554149 0.026037
0.620385 0.554528 0.022909
0.651827 0.554687 0.019569
0.684341 0.552725 0.014183
0.717268 0.550914 0.009544
0.750229 0.549290 0.006228
0.783165 0.547889 0.003844
0.816402 0.547479 0.003611
0.849915 0.547488 0.003589
0.883690 0.547817 0.003564
0.917713 0.548440 0.003535
0.944534 0.545176 0.003453
0.969128 0.541126 0.003386
0.983182 0.540279 0.003391
0.040805 0.579719 0.025384
0.073152 0.579916 0.025917
0.104311 0.580109 0.026424
0.134805 0.580302 0.026920
0.164701 0.580557 0.027199
0.194125 0.580874 0.027227
0.223310 0.581179 0.027249
0.252299 0.581474 0.027264
0.281123 0.581759 0.027273
0.309804 0.582035 0.027276
0.338361 0.582302 0.027273
0.366809 0.582562 0.027264
0.395158 0.582813 0.027250
0.423420 0.583057 0.027231
0.449169 0.583255 0.027210
0.475544 0.583463 0.027173
0.503212 0.583694 0.027113
0.531728 0.583941 0.027027
0.560901 0.584200 0.026913
0.590730 0.584552 0.025635
0.621400 0.584994 0.022437
0.652767 0.585364 0.019202
0.684720 0.585651 0.016235
0.717585 0.583677 0.011573
0.750605 0.581785 0.008077
0.783625 0.580110 0.005627
0.816926 0.578785 0.003541
0.850509 0.578425 0.003515
0.884350 0.578412 0.003486
0.918436 0.578718 0.003453
0.945004 0.574757 0.003365
0.969273 0.569964 0.003301
0.983332 0.569627 0.003303
0.039589 0.611126 0.024012
0.071812 0.611395 0.024194
0.102780 0.611694 0.024218
0.133138 0.611975 0.024234
0.163083 0.612243 0.024245
0.192718 0.612500 0.024250
0.222106 0.612747 0.024249
0.251290 0.612985 0.024244
0.280304 0.613216 0.024233
0.309169 0.613439 0.024218
0.337905 0.613655 0.024197
0.366542 0.613872 0.024159
0.395096 0.614089 0.024098
0.423577 0.614309 0.024015
0.449518 0.614491 0.023932
0.476095 0.614684 0.023829
0.503981 0.614899 0.023698
0.532724 0.615127 0.023539
0.562127 0.615367 0.023353
0.592081 0.615616 0.023139
0.622631 0.615963 0.021653
0.653956 0.616388 0.018394
0.685864 0.616727 0.015432
0.718208 0.616981 0.013098
0.751191 0.615142 0.009798
0.784286 0.613179 0.007283
0.817652 0.611453 0.004751
0.851290 0.610334 0.003419
0.885188 0.609950 0.003386
0.919322 0.609906 0.003349
0.945568 0.605157 0.003256
0.969417 0.599631 0.003198
0.983482 0.599864 0.003197
0.036906 0.643463 0.021085
0.069255 0.643712 0.021093
0.100463 0.643941 0.021096
0.131049 0.644157 0.021093
0.161211 0.644362 0.021086
0.191053 0.644559 0.021075
0.220641 0.644748 0.021060
0.250029 0.644935 0.021032
0.279260 0.645125 0.020981
0.308358 0.645317 0.020907
0.337341 0.645512 0.020813
0.366223 0.645708 0.020699
0.395016 0.645906 0.020567
0.423731 0.646105 0.020416
0.449859 0.646270 0.020279
0.476629 0.646446 0.020122
0.504725 0.646641 0.019934
0.533684 0.646848 0.019718
0.563307 0.647066 0.019476
0.593481 0.647292 0.019208
0.624132 0.647524 0.018914
0.655329 0.647854 0.017327
0.687196 0.648235 0.014404
0.719506 0.648525 0.012140
0.752070 0.648735 0.010883
0.785121 0.647041 0.008820
0.818545 0.645027 0.006254
0.852230 0.643247 0.003636
0.886173 0.642375 0.003262
0.919939 0.641681 0.003219
0.946209 0.636326 0.003125
0.969565 0.630706 0.003070
0.983630 0.630951 0.003068
0.034142 0.676131 0.018095
0.066730 0.676311 0.018088
0.098157 0.676476 0.018078
0.128953 0.676633 0.018061
0.159335 0.676791 0.018022
0.189412 0.676954 0.017959
0.219250 0.677119 0.017875
0.248891 0.677287 0.017772
0.278368 0.677458 0.017649
0.307705 0.677631 0.017509
0.336919 0.677805 0.017353
0.366026 0.677982 0.017180
0.395036 0.678160 0.016993
0.423962 0.678338 0.016792
0.450259 0.678487 0.016616
0.477203 0.678645 0.016421
0.505486 0.678819 0.016193
0.534637 0.679006 0.015940
0.564455 0.679202 0.015661
0.594823 0.679405 0.015360
0.625665 0.679614 0.015037
0.656927 0.679828 0.014692
0.688680 0.680129 0.013184
0.720958 0.680444 0.011027
0.753513 0.680669 0.009894
0.786245 0.680850 0.009561
0.819570 0.679335 0.007661
0.853298 0.677269 0.005020
0.887272 0.675637 0.003112
0.920617 0.674210 0.003063
0.946903 0.668218 0.002968
0.969709 0.662607 0.002917
0.983773 0.662857 0.002915
0.031776 0.708914 0.015534
0.064597 0.709054 0.015485
0.096266 0.709194 0.015414
0.127313 0.709337 0.015321
0.157939 0.709482 0.015209
0.188250 0.709630 0.015080
0.218312 0.709780 0.014935
0.248171 0.709933 0.014774
0.277858 0.710088 0.014600
0.307397 0.710245 0.014413
0.336806 0.710404 0.014213
0.366101 0.710564 0.014001
0.395294 0.710725 0.013779
0.424393 0.710887 0.013547
0.450830 0.711022 0.013348
0.477917 0.711165 0.013131
0.506351 0.711323 0.012883
0.535658 0.711493 0.012610
0.565630 0.711670 0.012317
0.596151 0.711855 0.012003
0.627143 0.712045 0.011672
0.658551 0.712240 0.011323
0.690331 0.712439 0.010959
0.722530 0.712697 0.009792
0.755076 0.712928 0.008809
0.787842 0.713117 0.008463
0.820875 0.713308 0.008107
0.854448 0.711970 0.006338
0.888447 0.709848 0.003639
0.921332 0.707455 0.002879
0.947627 0.700800 0.002786
0.969846 0.695303 0.002738
0.983911 0.695550 0.002735
0.030375 0.741735 0.013595
0.063425 0.741873 0.013472
0.095304 0.742010 0.013335
0.126549 0.742148 0.013185
0.157363 0.742288 0.013022
0.187854 0.742429 0.012846
0.218088 0.742573 0.012660
0.248112 0.742719 0.012463
0.277956 0.742866 0.012256
0.307645 0.743015 0.012040
0.337199 0.743165 0.011816
0.366632 0.743316 0.011583
0.395955 0.743468 0.011344
0.425180 0.743621 0.011098
0.451715 0.743748 0.010889
0.478901 0.743883 0.010665
0.507441 0.744033 0.010411
0.536853 0.744192 0.010136
0.566929 0.744360 0.009843
0.597551 0.744533 0.009533
0.628640 0.744713 0.009209
0.660138 0.744896 0.008871
0.692004 0.745083 0.008522
0.724203 0.745274 0.008161
0.756723 0.745477 0.007647
0.789514 0.745669 0.007283
0.822568 0.745863 0.006912
0.855867 0.746057 0.006532
0.889653 0.744895 0.004912
0.922058 0.741387 0.002666
0.948355 0.734041 0.002574
0.969977 0.728764 0.002530
0.984041 0.729001 0.002528
0.030393 0.774449 0.012619
0.063587 0.774601 0.012441
0.095597 0.774749 0.012258
0.126963 0.774898 0.012066
0.157890 0.775047 0.011866
0.188487 0.775196 0.011658
0.218821 0.775347 0.011442
0.248939 0.775500 0.011219
0.278871 0.775653 0.010989
0.308644 0.775807 0.010753
0.338275 0.775962 0.010510
0.367780 0.776117 0.010262
0.397171 0.776273 0.010009
0.426458 0.776430 0.009752
0.453042 0.776559 0.009535
0.480276 0.776696 0.009303
0.508865 0.776848 0.009043
0.538324 0.777009 0.008762
0.568446 0.777178 0.008465
0.599110 0.777353 0.008152
0.630236 0.777533 0.007827
0.661769 0.777716 0.007490
0.693664 0.777903 0.007143
0.725888 0.778092 0.006786
0.758414 0.778282 0.006421
0.791217 0.778474 0.006048
0.824279 0.778665 0.005670
0.857581 0.778857 0.005287
0.891110 0.779047 0.004900
0.922769 0.776165 0.003437
0.949058 0.767923 0.002334
0.970098 0.762964 0.002292
0.984161 0.763184 0.002289
0.031188 0.807274 0.011975
0.064467 0.807450 0.011740
0.096554 0.807620 0.011505
0.127989 0.807788 0.011266
0.158981 0.807955 0.011022
0.189638 0.808121 0.010773
0.220028 0.808287 0.010519
0.250198 0.808453 0.010260
0.280179 0.808619 0.009997
0.309997 0.808784 0.009730
0.339670 0.808949 0.009458
0.369214 0.809114 0.009184
0.398641 0.809279 0.008906
0.427961 0.809442 0.008625
0.454570 0.809577 0.008391
0.481828 0.809719 0.008142
0.510441 0.809876 0.007865
0.539924 0.810041 0.007568
0.570067 0.810213 0.007255
