luts/cinematic-stream-teal-orange.cube
# Cinematic Stream TealOrange
# Full cinematic look: teal shadows, warm skin/highlights, matte blacks.
# Pulls magenta LED accents toward cooler teal while protecting skin tones.
# Use on your webcam / game capture in OBS. Start intensity ~80–100%.
TITLE "Cinematic Stream TealOrange"
LUT_3D_SIZE 5
DOMAIN_MIN 0.000000 0.000000 0.000000
DOMAIN_MAX 1.000000 1.000000 1.000000
0.000491 0.035531 0.068988
0.237211 0.033056 0.099288
0.457073 0.019742 0.213010
0.723550 0.010771 0.243907
0.968088 0.004425 0.257304
0.024125 0.275177 0.056743
0.273053 0.276803 0.049907
0.486166 0.268955 0.026170
0.753833 0.290040 0.004616
0.967078 0.295851 0.005993
0.072411 0.481461 0.046702
0.304957 0.484875 0.054080
0.500437 0.488893 0.059431
0.750320 0.477768 0.006747
0.968887 0.471723 0.006389
0.055227 0.734974 0.024718
0.300829 0.737029 0.022284
0.513529 0.739150 0.018930
0.762223 0.741776 0.013903
0.970983 0.711820 0.004596
0.069096 0.970928 0.009601
0.312111 0.971348 0.004913
0.519827 0.971626 0.002933
0.759542 0.971853 0.001766
0.971971 0.971971 0.000601
0.000948 0.035862 0.310076
0.159080 0.020196 0.448143
0.286969 0.000730 0.969119
0.627151 0.001448 0.855680
0.954893 0.002635 0.905653
0.030191 0.275596 0.286482
0.278263 0.277636 0.277726
0.492044 0.315469 0.265333
0.725342 0.367554 0.246700
0.956483 0.400070 0.203196
0.076358 0.482319 0.273575
0.307282 0.486207 0.279748
0.502114 0.490570 0.283593
0.740513 0.487487 0.261221
0.969150 0.475058 0.212765
0.058604 0.734620 0.268094
0.319458 0.730794 0.283284
0.522304 0.736105 0.279712
0.762628 0.741542 0.272710
0.971093 0.707252 0.225466
0.070878 0.971082 0.245492
0.313644 0.971467 0.241276
0.520927 0.971714 0.238304
0.759883 0.971907 0.236092
0.971995 0.971995 0.235150
0.001249 0.036160 0.514676
0.134942 0.010662 0.704411
0.258070 0.000574 0.835737
0.323822 0.000808 0.969021
0.518954 0.001283 0.968542
0.035270 0.276086 0.480282
0.282531 0.278462 0.469932
0.408010 0.284174 0.544074
0.673558 0.260595 0.879134
0.967074 0.204034 0.951407
0.078828 0.483320 0.465007
0.309202 0.487530 0.469427
0.503569 0.491986 0.473717
0.742655 0.516781 0.471857
0.960923 0.555613 0.433356
0.059408 0.735294 0.472260
0.321308 0.732453 0.477813
0.524598 0.737633 0.475858
0.765006 0.742785 0.472038
0.968349 0.712233 0.428658
0.072320 0.971203 0.445798
0.316450 0.971197 0.443303
0.525511 0.970851 0.444334
0.760598 0.971709 0.440280
0.972000 0.972000 0.437657
0.000459 0.035768 0.765415
0.143610 0.011889 0.868061
0.178947 0.000525 0.969419
0.333638 0.000829 0.968996
0.356180 0.000879 0.968937
0.030204 0.277727 0.729553
0.287275 0.279577 0.694374
0.376907 0.283165 0.788711
0.516072 0.270371 0.932922
0.356150 0.144952 0.967904
0.058066 0.489670 0.707897
0.310470 0.489365 0.692176
0.505161 0.493534 0.698358
0.697374 0.499717 0.765759
0.773753 0.425145 0.957021
0.060577 0.736140 0.712047
0.322943 0.734563 0.706948
0.526951 0.739500 0.706754
0.767947 0.744279 0.705148
0.968303 0.730880 0.673591
0.073903 0.971335 0.681154
0.317481 0.971362 0.678524
0.526492 0.970985 0.678755
0.760343 0.971848 0.676377
0.972000 0.972000 0.675463
0.001160 0.034819 0.969411
0.141555 0.012416 0.969412
0.176801 0.000521 0.969425
0.201230 0.000564 0.969356
0.345289 0.000855 0.968965
0.033913 0.271339 0.963444
0.283388 0.271786 0.960982
0.361766 0.245171 0.967415
0.340917 0.204936 0.967613
0.460124 0.178040 0.967573
0.052229 0.480637 0.961157
0.291733 0.481786 0.959757
0.501891 0.490118 0.944136
0.550421 0.458913 0.951793
0.625440 0.427000 0.954429
0.057164 0.722113 0.961727
0.303671 0.725360 0.958924
0.521380 0.730129 0.952150
0.757965 0.733991 0.952897
0.960244 0.723034 0.968902
0.075494 0.971468 0.944680
0.318304 0.971529 0.942146
0.525679 0.971390 0.941111
0.759731 0.972000 0.941382
0.972000 0.972000 0.941382
