luts/cinematic-stream-teal-orange.cube
# Cinematic Stream TealOrange
# Full cinematic look: teal shadows, warm skin/highlights, matte blacks.
# Pulls magenta LED accents toward cooler teal while protecting skin tones.
# Use on your webcam / game capture in OBS. Start intensity ~80–100%.
TITLE "Cinematic Stream TealOrange"
LUT_3D_SIZE 33
DOMAIN_MIN 0.000000 0.000000 0.000000
DOMAIN_MAX 1.000000 1.000000 1.000000
0.000491 0.035531 0.068988
0.026710 0.035623 0.069041
0.058822 0.035753 0.069124
0.089668 0.035895 0.069222
0.119627 0.036051 0.069336
0.149133 0.035988 0.071450
0.178493 0.035464 0.077287
0.207844 0.034473 0.086666
0.237211 0.033056 0.099288
0.266585 0.031284 0.114646
0.295926 0.029254 0.132017
0.325165 0.027086 0.150459
0.354206 0.024919 0.168831
0.382933 0.022916 0.185815
0.406363 0.021507 0.197776
0.430709 0.020389 0.207329
0.457073 0.019742 0.213010
0.485149 0.019236 0.216726
0.515104 0.018517 0.220598
0.546793 0.017572 0.224569
0.580071 0.016405 0.228581
0.614745 0.015051 0.232578
0.650524 0.013576 0.236502
0.686988 0.012095 0.240296
0.723550 0.010771 0.243907
0.759440 0.009825 0.247288
0.795176 0.009081 0.250551
0.831376 0.008337 0.253783
0.868008 0.007592 0.256999
0.905041 0.006847 0.260212
0.937470 0.006068 0.262048
0.960124 0.005242 0.261234
0.968088 0.004425 0.257304
0.001146 0.069171 0.069306
0.027291 0.069279 0.069414
0.059322 0.069428 0.069554
0.090202 0.069582 0.069604
0.120323 0.069741 0.069551
0.149914 0.070343 0.069374
0.179218 0.072179 0.069042
0.208150 0.075570 0.068384
0.236647 0.080675 0.067242
0.264575 0.087411 0.065489
0.291845 0.095503 0.063045
0.318461 0.104522 0.059905
0.344535 0.113928 0.056154
0.370274 0.123118 0.051976
0.391502 0.130104 0.048394
0.414084 0.136442 0.044726
0.439480 0.141761 0.041109
0.466515 0.146804 0.037572
0.495132 0.151842 0.033906
0.525527 0.156662 0.030142
0.557653 0.161279 0.026017
0.591453 0.165756 0.021206
0.626653 0.170129 0.015849
0.662799 0.174481 0.010207
0.699213 0.178956 0.004693
0.734413 0.185966 0.003010
0.768615 0.194113 0.003198
0.803143 0.202393 0.003465
0.838062 0.210780 0.003745
0.873338 0.219272 0.004039
0.908940 0.227868 0.004348
0.938902 0.235083 0.004642
0.946467 0.236520 0.004727
0.002066 0.100967 0.069645
0.028587 0.101068 0.069496
0.060975 0.101206 0.069292
0.092206 0.101349 0.069003
0.122648 0.101498 0.068640
0.152491 0.101654 0.068212
0.181855 0.101818 0.067723
0.210870 0.102014 0.067025
0.239617 0.102296 0.066015
0.268128 0.102690 0.064691
0.296425 0.103208 0.063070
0.324524 0.103853 0.061179
0.352432 0.104616 0.059061
0.380151 0.105483 0.056770
0.402936 0.106259 0.054790
0.427127 0.110288 0.051995
0.453824 0.115225 0.048748
0.481886 0.120327 0.045336
0.511657 0.125319 0.041653
0.543215 0.129994 0.037804
0.576491 0.134429 0.033551
0.611354 0.138727 0.028701
0.647458 0.142946 0.023402
0.684262 0.147203 0.017924
0.720978 0.151676 0.012680
0.756549 0.156611 0.008246
0.791666 0.161832 0.004246
0.826870 0.169374 0.003095
0.862251 0.178109 0.003367
0.897915 0.186937 0.003653
0.932301 0.195540 0.003947
0.953990 0.201506 0.004199
0.960331 0.203276 0.004274
0.003702 0.131612 0.068994
0.031434 0.131703 0.068501
0.064123 0.131834 0.068005
0.095622 0.131972 0.067455
0.126304 0.132118 0.066857
0.156363 0.132272 0.066217
0.185922 0.132432 0.065535
0.215127 0.132537 0.064600
0.244118 0.132617 0.063101
0.272905 0.132806 0.061099
0.301451 0.133161 0.058820
0.329791 0.133679 0.056230
0.357927 0.134358 0.053404
0.385853 0.135182 0.050427
0.408788 0.135953 0.047920
0.432865 0.136830 0.045299
0.459336 0.137838 0.042523
0.487461 0.138852 0.039728
0.517511 0.139609 0.036757
0.549318 0.139980 0.033821
0.582838 0.140067 0.030550
0.617899 0.139952 0.026848
0.654141 0.139701 0.022891
0.691023 0.139430 0.018939
0.727786 0.139313 0.015352
0.763471 0.139577 0.012574
0.798894 0.140015 0.010153
0.834707 0.140458 0.007751
0.871205 0.144932 0.004148
0.908103 0.153162 0.003206
0.939001 0.161455 0.003476
0.961211 0.168265 0.003724
0.966927 0.170206 0.003792
0.006001 0.161420 0.067441
0.035533 0.161511 0.066693
0.068446 0.161641 0.065978
0.100140 0.161779 0.065237
0.130991 0.161926 0.064471
0.161198 0.162083 0.063683
0.190882 0.162247 0.062875
0.220170 0.162314 0.061894
0.249198 0.162214 0.060436
0.278059 0.162024 0.058281
0.306812 0.161863 0.055299
0.335484 0.161856 0.051448
0.363946 0.162172 0.047309
0.392014 0.162823 0.043702
0.415047 0.163505 0.040727
0.439202 0.164339 0.037684
0.465738 0.165353 0.034542
0.494287 0.166343 0.031197
0.524780 0.167125 0.027728
0.556953 0.167597 0.024403
0.590779 0.167822 0.020682
0.626011 0.167860 0.016589
0.662212 0.167791 0.012375
0.698754 0.167753 0.008390
0.734781 0.167938 0.005097
0.769775 0.168564 0.002853
0.805028 0.171039 0.003028
0.840643 0.173511 0.003210
0.876583 0.175968 0.003398
0.912814 0.178396 0.003592
0.941583 0.179314 0.003761
0.963616 0.178959 0.003907
0.967357 0.178400 0.003924
0.008841 0.190572 0.065232
0.040617 0.190675 0.064311
0.073683 0.190808 0.063444
0.105503 0.190951 0.062574
0.136459 0.191104 0.061701
0.166750 0.191269 0.060826
0.196499 0.191445 0.059950
0.225800 0.191583 0.059027
0.254804 0.191424 0.057690
0.283607 0.191017 0.055717
0.312270 0.190475 0.052968
0.340830 0.189932 0.049392
0.369297 0.189520 0.045018
0.397660 0.189356 0.039952
0.421023 0.189472 0.035364
0.445595 0.189878 0.030283
0.472381 0.190808 0.026414
0.501333 0.191805 0.022491
0.532159 0.192708 0.018584
0.564577 0.193412 0.014910
0.598562 0.193884 0.010814
0.633734 0.194586 0.007058
0.669508 0.196512 0.005233
0.705459 0.198516 0.003792
0.740800 0.200756 0.003188
0.775465 0.203233 0.003357
0.810491 0.205690 0.003545
0.845852 0.208114 0.003739
0.881512 0.210492 0.003939
0.917437 0.212813 0.004145
0.944157 0.212936 0.004313
0.965972 0.211973 0.004461
0.967253 0.210838 0.004451
0.012119 0.219190 0.062576
0.046455 0.219314 0.061564
0.079606 0.219455 0.060605
0.111491 0.219607 0.059667
0.142490 0.219770 0.058743
0.172806 0.219946 0.057834
0.202562 0.220134 0.056940
0.231843 0.220335 0.056064
0.260739 0.220406 0.055068
0.289427 0.219913 0.053350
0.317948 0.219131 0.050899
0.346342 0.218201 0.047656
0.374624 0.217275 0.043644
0.402789 0.216496 0.038963
0.425981 0.216050 0.034705
0.450370 0.215840 0.029979
0.477598 0.215896 0.024286
0.507336 0.216189 0.017524
0.538941 0.218545 0.013454
0.571423 0.221466 0.011912
0.605161 0.223829 0.009937
0.640028 0.226053 0.007763
0.675576 0.228209 0.005700
0.711185 0.230409 0.004159
0.746037 0.232820 0.003664
0.780421 0.235365 0.003859
0.815158 0.237850 0.004060
0.850204 0.240263 0.004265
0.885522 0.242596 0.004476
0.921077 0.244837 0.004692
0.946102 0.244205 0.004857
0.967171 0.242578 0.005000
0.967175 0.240980 0.004972
0.017369 0.247370 0.059688
0.052838 0.247513 0.058635
0.086014 0.247666 0.057644
0.117902 0.247831 0.056691
0.148887 0.248009 0.055769
0.179172 0.248200 0.054878
0.208882 0.248404 0.054017
0.238102 0.248621 0.053188
0.266890 0.248852 0.052391
0.295346 0.248824 0.051363
0.323674 0.247925 0.049276
0.351851 0.246740 0.046425
0.379898 0.245433 0.042828
0.407815 0.244170 0.038578
0.430797 0.243269 0.034683
0.454965 0.242547 0.030336
0.482080 0.242016 0.024825
0.511668 0.241750 0.018171
0.543042 0.243943 0.014962
0.575906 0.247359 0.013123
0.610215 0.251028 0.010849
0.645620 0.254939 0.008393
0.680885 0.257452 0.006125
0.716082 0.259905 0.004523
0.750426 0.262521 0.004146
0.784488 0.265174 0.004353
0.818876 0.267722 0.004565
0.853547 0.270158 0.004782
0.888462 0.272472 0.005003
0.923587 0.274657 0.005227
0.947333 0.273367 0.005389
0.967115 0.270961 0.005518
0.967118 0.269065 0.005482
0.024125 0.275177 0.056743
0.059578 0.275336 0.055693
0.092718 0.275505 0.054724
0.124553 0.275687 0.053809
0.155470 0.275883 0.052941
0.185671 0.276092 0.052116
0.215283 0.276315 0.051336
0.244390 0.276552 0.050599
0.273053 0.276803 0.049907
0.301318 0.277069 0.049262
0.329292 0.276934 0.048260
0.357206 0.275606 0.045861
0.384971 0.274033 0.042731
0.412593 0.272400 0.038957
0.435324 0.271132 0.035457
0.459249 0.269980 0.031483
0.486166 0.268955 0.026170
0.515506 0.268204 0.019637
0.546601 0.269857 0.016585
0.579226 0.272545 0.014394
0.613261 0.275525 0.011783
0.648352 0.278782 0.009038
0.684001 0.282343 0.006563
0.719532 0.286284 0.004890
0.753833 0.290040 0.004616
0.787516 0.292836 0.004834
0.821497 0.295478 0.005057
0.855734 0.297961 0.005284
0.890188 0.300280 0.005513
0.924858 0.302448 0.005746
0.947913 0.300758 0.005909
0.967075 0.297922 0.006033
0.967078 0.295851 0.005993
0.031124 0.302655 0.053885
0.066499 0.302834 0.052895
0.099547 0.303024 0.051999
0.131275 0.303226 0.051172
0.162070 0.303443 0.050404
0.192136 0.303673 0.049693
0.221601 0.303919 0.049037
0.250547 0.304179 0.048437
0.279038 0.304453 0.047893
0.307118 0.304743 0.047407
0.334821 0.305047 0.046980
0.362263 0.304844 0.046104
0.389703 0.303105 0.043493
0.416985 0.301199 0.040240
0.439429 0.299638 0.037166
0.463074 0.298125 0.033571
0.489698 0.296680 0.028494
0.518688 0.295500 0.022112
0.549458 0.296227 0.018347
0.581746 0.298151 0.015790
0.615415 0.300403 0.012830
0.650109 0.302961 0.009784
0.685334 0.305845 0.007084
0.720423 0.309122 0.005289
0.754587 0.312901 0.005014
0.788596 0.316995 0.005267
0.822892 0.321268 0.005531
0.856800 0.323910 0.005769
0.891088 0.326452 0.006012
0.925734 0.328904 0.006260
0.948432 0.327039 0.006431
0.967051 0.323854 0.006550
0.967053 0.321621 0.006505
0.038198 0.329846 0.051260
0.073437 0.330049 0.050383
0.106337 0.330262 0.049612
0.137906 0.330488 0.048919
0.168530 0.330729 0.048298
0.198413 0.330984 0.047744
0.227682 0.331255 0.047256
0.256422 0.331540 0.046835
0.284695 0.331841 0.046480
0.312545 0.332157 0.046193
0.340009 0.332488 0.045975
0.367114 0.332834 0.045827
0.393964 0.332670 0.045239
0.420864 0.330575 0.042551
0.442985 0.328784 0.039933
0.466303 0.326972 0.036747
0.492537 0.325164 0.031970
0.521068 0.323593 0.025790
0.551458 0.323046 0.020288
0.583311 0.324168 0.017353
0.616519 0.325652 0.014033
0.650734 0.327466 0.010669
0.685473 0.329621 0.007716
0.720093 0.332178 0.005752
0.753935 0.335287 0.005412
0.787760 0.338814 0.005663
0.822028 0.342641 0.005929
0.856707 0.346745 0.006208
0.891772 0.351103 0.006501
0.926650 0.354334 0.006751
0.949147 0.352211 0.006673
0.967370 0.348616 0.006597
0.967338 0.346255 0.006596
0.045191 0.356786 0.049007
0.080237 0.357016 0.048295
0.112938 0.357255 0.047694
0.144297 0.357508 0.047182
0.174701 0.357776 0.046750
0.204354 0.358059 0.046396
0.233382 0.358357 0.046118
0.261871 0.358670 0.045915
0.289882 0.359000 0.045789
0.317460 0.359345 0.045740
0.344642 0.359705 0.045769
0.371454 0.360081 0.045876
0.397921 0.360473 0.046065
0.424111 0.360532 0.045997
0.445876 0.358569 0.043869
0.468809 0.356509 0.041150
0.494558 0.354387 0.036771
0.522521 0.352451 0.030878
0.552382 0.350923 0.024045
0.583775 0.350646 0.019141
0.616431 0.351317 0.015447
0.650203 0.352379 0.011731
0.684681 0.353859 0.008468
0.719241 0.355821 0.006271
0.753101 0.358373 0.005838
0.786919 0.361381 0.006089
0.821180 0.364727 0.006354
0.855852 0.368384 0.006634
0.891075 0.372294 0.006758
0.926804 0.376438 0.006767
0.949749 0.375607 0.006676
0.967687 0.372440 0.006595
0.967654 0.369947 0.006596
0.051954 0.383503 0.047256
0.086753 0.383764 0.046757
0.119203 0.384033 0.046373
0.150305 0.384315 0.046084
0.180443 0.384613 0.045884
0.209820 0.384925 0.045770
0.238563 0.385254 0.045740
0.266758 0.385598 0.045795
0.294464 0.385958 0.045935
0.321729 0.386334 0.046160
0.348588 0.386726 0.046472
0.375069 0.387135 0.046872
0.401194 0.387559 0.047359
0.426983 0.387999 0.047937
0.448072 0.388375 0.048484
0.470486 0.386733 0.046904
0.495660 0.384334 0.043060
0.522959 0.382053 0.037562
0.552219 0.380113 0.030822
0.583313 0.378414 0.023075
0.615864 0.377724 0.017048
0.649500 0.378107 0.012914
0.683891 0.378946 0.009292
0.718419 0.380293 0.006835
0.752293 0.382250 0.006296
0.786102 0.384703 0.006545
0.820401 0.387526 0.006753
0.855301 0.390661 0.006763
0.890626 0.394104 0.006768
0.926353 0.397831 0.006767
0.949478 0.396396 0.006668
0.967957 0.393474 0.006577
0.967927 0.391097 0.006580
0.058345 0.410024 0.046128
0.092844 0.410318 0.045890
0.124995 0.410620 0.045766
0.155793 0.410935 0.045742
0.185619 0.411265 0.045814
0.214678 0.411610 0.045979
0.243094 0.411971 0.046236
0.270952 0.412348 0.046585
0.298314 0.412741 0.047027
0.325225 0.413150 0.047563
0.351722 0.413576 0.048192
0.377832 0.414018 0.048917
0.403578 0.414476 0.049738
0.428983 0.414951 0.050653
0.449802 0.415352 0.051436
0.471676 0.415789 0.052153
0.496233 0.414924 0.050452
0.523166 0.412261 0.045034
0.552068 0.409868 0.038078
0.582826 0.407728 0.029952
0.615255 0.405773 0.021085
0.648868 0.404726 0.014205
0.683149 0.404888 0.010190
0.717629 0.405585 0.007448
0.751535 0.406907 0.006752
0.785506 0.408741 0.006762
0.819956 0.410988 0.006768
0.854855 0.413611 0.006768
0.890178 0.416578 0.006764
0.925905 0.419859 0.006753
0.949209 0.417794 0.006647
0.968217 0.414334 0.006546
0.968185 0.411706 0.006551
0.063350 0.432268 0.045747
0.097556 0.432593 0.045764
0.129418 0.432925 0.045893
0.159924 0.433269 0.046124
0.189454 0.433628 0.046455
0.218210 0.434002 0.046884
0.246318 0.434392 0.047412
0.273861 0.434798 0.048037
0.300901 0.435221 0.048761
0.327484 0.435660 0.049585
0.353646 0.436116 0.050508
0.379479 0.436584 0.051475
0.405048 0.437062 0.052448
0.430373 0.437550 0.053426
0.451150 0.437961 0.054241
0.472974 0.438409 0.054981
0.497218 0.438958 0.054704
0.523551 0.438140 0.051533
0.552129 0.435365 0.044396
0.582573 0.432853 0.035940
0.614729 0.430545 0.026650
0.648284 0.428426 0.017184
0.682600 0.427432 0.010938
0.717147 0.427539 0.007728
0.751160 0.428285 0.006767
0.785131 0.429591 0.006769
0.819580 0.431347 0.006767
0.854478 0.433513 0.006760
0.889802 0.436055 0.006748
0.925530 0.438941 0.006729
0.949015 0.436347 0.006616
0.968435 0.432434 0.006508
0.968403 0.429703 0.006515
0.068187 0.455784 0.045994
0.102042 0.456144 0.046317
0.133561 0.456509 0.046745
0.163723 0.456886 0.047278
0.192905 0.457277 0.047914
0.221308 0.457684 0.048652
0.249056 0.458107 0.049494
0.276234 0.458546 0.050440
0.302963 0.458998 0.051436
0.329342 0.459459 0.052435
0.355405 0.459930 0.053438
0.381181 0.460410 0.054446
0.406695 0.460901 0.055460
0.431965 0.461401 0.056480
0.452696 0.461822 0.057328
0.474467 0.462284 0.058093
0.498611 0.462868 0.057753
0.524551 0.463520 0.055996
0.552470 0.462830 0.051014
0.582684 0.459923 0.041813
0.614639 0.457232 0.031811
0.648024 0.454733 0.021740
0.682333 0.452451 0.012456
0.716775 0.451488 0.007789
0.750759 0.451612 0.006767
0.784730 0.452328 0.006761
0.819179 0.453537 0.006751
0.854091 0.455202 0.006737
0.889488 0.457316 0.006717
0.925353 0.459848 0.006690
0.948999 0.456672 0.006570
0.968666 0.452181 0.006455
0.968635 0.449458 0.006463
0.072411 0.481461 0.046702
0.105854 0.481861 0.047364
0.136977 0.482261 0.048127
0.166748 0.482672 0.048999
0.195540 0.483094 0.049981
0.223623 0.483527 0.051007
0.251169 0.483967 0.052031
0.278261 0.484417 0.053055
0.304957 0.484875 0.054080
0.331304 0.485343 0.055109
0.357337 0.485819 0.056141
0.383085 0.486306 0.057178
0.408570 0.486802 0.058220
0.433813 0.487307 0.059267
0.454522 0.487732 0.060138
0.476303 0.488259 0.060234
0.500437 0.488893 0.059431
0.526417 0.489638 0.056635
0.554048 0.490366 0.052575
0.583440 0.489930 0.046393
0.614961 0.486793 0.036437
0.647939 0.483875 0.026324
0.681944 0.481179 0.016892
0.716338 0.478758 0.009094
0.750320 0.477768 0.006747
0.784341 0.477837 0.006734
0.818901 0.478485 0.006716
0.853971 0.479664 0.006693
0.889526 0.481335 0.006665
0.925544 0.483458 0.006630
0.949203 0.479533 0.006500
0.968915 0.474278 0.006380
0.968887 0.471723 0.006389
0.074783 0.508926 0.047202
0.107842 0.509342 0.048245
0.138677 0.509753 0.049304
0.168298 0.510165 0.050340
0.197069 0.510582 0.051365
0.225184 0.511006 0.052383
0.252765 0.511437 0.053398
0.279894 0.511876 0.054413
0.306631 0.512323 0.055430
0.333020 0.512779 0.056448
0.359098 0.513244 0.057469
0.384795 0.513803 0.057932
0.410240 0.514410 0.057992
0.435539 0.515000 0.058039
0.456365 0.515475 0.058068
0.478294 0.515966 0.058089
0.502502 0.516496 0.058102
0.528330 0.517146 0.056690
0.555814 0.517923 0.052585
0.584800 0.518631 0.047534
0.615334 0.518515 0.041180
0.647899 0.515136 0.031062
0.681620 0.512003 0.021477
0.715957 0.509151 0.013351
0.750142 0.506665 0.007737
0.784320 0.505736 0.006681
0.819038 0.505784 0.006656
0.854262 0.506413 0.006625
0.889966 0.507577 0.006588
0.926127 0.509233 0.006544
0.949636 0.504390 0.006405
0.969174 0.498179 0.006281
0.969151 0.496004 0.006291
0.075148 0.537913 0.047318
0.108235 0.538309 0.048379
0.139164 0.538697 0.049390
0.168880 0.539086 0.050378
0.197750 0.539478 0.051354
0.225967 0.539877 0.052324
0.253653 0.540282 0.053291
0.280869 0.540705 0.054206
0.307386 0.541314 0.054269
0.333653 0.541904 0.054319
0.359703 0.542476 0.054356
0.385563 0.543031 0.054381
0.411252 0.543570 0.054394
0.436789 0.544094 0.054395
0.457809 0.544516 0.054388
0.479937 0.544951 0.054372
0.504362 0.545420 0.054345
0.530276 0.545906 0.054304
0.557512 0.546532 0.052453
0.586351 0.547317 0.047341
0.616609 0.548006 0.041653
0.648208 0.548295 0.035580
0.681756 0.544727 0.025787
0.716056 0.541435 0.017352
0.750417 0.538482 0.011324
0.784732 0.535934 0.006989
0.819594 0.535190 0.006565
0.854960 0.535206 0.006526
0.890800 0.535804 0.006480
0.927092 0.536937 0.006428
0.950290 0.531002 0.006279
0.969437 0.523639 0.006157
0.969421 0.522099 0.006165
0.074191 0.568239 0.046153
0.107436 0.568598 0.047122
0.138521 0.568948 0.048044
0.168395 0.569298 0.048945
0.197183 0.569763 0.049453
0.225113 0.570339 0.049504
0.252609 0.570894 0.049543
0.279748 0.571430 0.049571
0.306586 0.571948 0.049587
0.333166 0.572450 0.049592
0.359520 0.572936 0.049587
0.385675 0.573407 0.049572
0.411652 0.573865 0.049546
0.437468 0.574309 0.049511
0.458716 0.574667 0.049473
0.481102 0.575046 0.049406
0.505841 0.575467 0.049296
0.532120 0.575916 0.049140
0.559592 0.576387 0.048934
0.588258 0.577026 0.046610
0.618455 0.577830 0.040794
0.649917 0.578502 0.034913
0.682446 0.579024 0.029518
0.716631 0.575436 0.021042
0.751101 0.571995 0.014686
0.785568 0.568949 0.010231
0.820547 0.566542 0.006437
0.856039 0.565887 0.006391
0.892000 0.565863 0.006338
0.928407 0.566419 0.006278
0.951144 0.559218 0.006119
0.969700 0.550503 0.006003
0.969695 0.549891 0.006006
0.071979 0.599774 0.043659
0.104999 0.600264 0.043989
0.135736 0.600807 0.044032
0.165365 0.601318 0.044062
0.194242 0.601805 0.044082
0.222555 0.602272 0.044090
0.250419 0.602721 0.044090
0.277914 0.603155 0.044079
0.305098 0.603574 0.044060
0.332011 0.603980 0.044033
0.358691 0.604374 0.043995
0.385189 0.604766 0.043925
0.411538 0.605163 0.043814
0.437754 0.605561 0.043664
0.459351 0.605892 0.043512
0.482104 0.606244 0.043325
0.507239 0.606634 0.043087
0.533930 0.607050 0.042799
0.561822 0.607486 0.042460
0.590716 0.607939 0.042071
0.620693 0.608569 0.039370
0.652078 0.609342 0.033444
0.684526 0.609959 0.028058
0.717765 0.610420 0.023814
0.752166 0.607075 0.017814
0.786769 0.603507 0.013242
0.821867 0.600368 0.008638
0.857458 0.598334 0.006217
0.893523 0.597636 0.006157
0.930016 0.597557 0.006089
0.952170 0.588923 0.005921
0.969963 0.578874 0.005815
0.969967 0.579298 0.005812
0.067102 0.633000 0.038337
0.100349 0.633454 0.038352
0.131524 0.633870 0.038356
0.161567 0.634262 0.038351
0.190838 0.634636 0.038339
0.219528 0.634993 0.038319
0.247756 0.635337 0.038291
0.275620 0.635677 0.038240
0.303200 0.636022 0.038147
0.330537 0.636372 0.038013
0.357665 0.636726 0.037842
0.384610 0.637083 0.037635
0.411393 0.637443 0.037394
0.438033 0.637805 0.037121
0.459971 0.638105 0.036871
0.483076 0.638424 0.036586
0.508591 0.638778 0.036244
0.535675 0.639156 0.035852
0.563967 0.639551 0.035411
0.593261 0.639962 0.034923
0.623422 0.640385 0.034389
0.654575 0.640984 0.031503
0.686947 0.641678 0.026189
0.720124 0.642204 0.022073
0.753764 0.642586 0.019787
0.788289 0.639507 0.016037
0.823490 0.635845 0.011370
0.859168 0.632609 0.006611
0.895315 0.631022 0.005931
0.931138 0.629761 0.005852
0.953334 0.620024 0.005681
0.970232 0.609807 0.005581
0.970235 0.610253 0.005578
0.062077 0.666828 0.032900
0.095758 0.667156 0.032887
0.127331 0.667456 0.032868
0.157755 0.667741 0.032838
0.187427 0.668030 0.032767
0.216545 0.668325 0.032653
0.245227 0.668625 0.032501
0.273552 0.668931 0.032312
0.301578 0.669241 0.032089
0.329349 0.669556 0.031835
0.356898 0.669874 0.031550
0.384251 0.670194 0.031237
0.411430 0.670518 0.030897
0.438453 0.670843 0.030532
0.460698 0.671113 0.030211
0.484120 0.671399 0.029856
0.509975 0.671717 0.029443
0.537408 0.672057 0.028981
0.566054 0.672412 0.028475
0.595700 0.672781 0.027928
0.626209 0.673162 0.027340
0.657481 0.673551 0.026713
0.689645 0.674098 0.023971
0.722765 0.674671 0.020049
0.756387 0.675080 0.017990
0.790331 0.675409 0.017383
0.825354 0.672655 0.013930
0.861109 0.668897 0.009127
0.897313 0.665930 0.005658
0.932371 0.663336 0.005569
0.954596 0.652442 0.005397
0.970493 0.642241 0.005304
0.970496 0.642694 0.005300
0.057775 0.700867 0.028243
0.091881 0.701121 0.028155
0.123894 0.701376 0.028025
0.154774 0.701635 0.027856
0.184889 0.701899 0.027653
0.214432 0.702168 0.027418
0.243523 0.702441 0.027154
0.272243 0.702719 0.026863
0.300651 0.703001 0.026546
0.328790 0.703286 0.026205
0.356693 0.703575 0.025841
0.384389 0.703866 0.025457
0.411898 0.704159 0.025053
0.439238 0.704454 0.024631
0.461737 0.704698 0.024269
0.485417 0.704958 0.023874
0.511548 0.705247 0.023423
0.539264 0.705555 0.022928
0.568192 0.705878 0.022394
0.598116 0.706213 0.021824
0.628897 0.706559 0.021222
0.660433 0.706913 0.020588
0.692648 0.707275 0.019925
0.725623 0.707745 0.017804
0.759229 0.708165 0.016017
0.793236 0.708508 0.015388
0.827727 0.708855 0.014740
0.863202 0.706422 0.011524
0.899449 0.702564 0.006616
0.933672 0.698213 0.005235
0.955913 0.686113 0.005065
0.970744 0.676119 0.004978
0.970747 0.676568 0.004974
0.055227 0.734974 0.024718
0.089749 0.735224 0.024494
0.122144 0.735473 0.024246
0.153385 0.735724 0.023973
0.183842 0.735978 0.023676
0.213712 0.736235 0.023357
0.243115 0.736497 0.023018
0.272135 0.736761 0.022660
0.300829 0.737029 0.022284
0.329242 0.737299 0.021891
0.357407 0.737572 0.021483
0.385353 0.737847 0.021061
0.413100 0.738124 0.020625
0.440667 0.738402 0.020178
0.463346 0.738633 0.019799
0.487207 0.738878 0.019391
0.513529 0.739150 0.018930
0.541437 0.739441 0.018430
0.570553 0.739745 0.017896
0.600661 0.740061 0.017333
0.631617 0.740386 0.016744
0.663319 0.740720 0.016130
0.695689 0.741061 0.015494
0.728665 0.741407 0.014838
0.762223 0.741776 0.013903
0.796276 0.742125 0.013243
0.830805 0.742478 0.012567
0.865780 0.742832 0.011877
0.901642 0.740719 0.008931
0.934992 0.734339 0.004848
0.957236 0.720984 0.004681
0.970980 0.711390 0.004601
0.970983 0.711820 0.004596
0.055261 0.768884 0.022943
0.090044 0.769161 0.022620
0.122676 0.769431 0.022286
0.154137 0.769700 0.021938
0.184799 0.769971 0.021575
0.214862 0.770244 0.021197
0.244448 0.770518 0.020804
0.273638 0.770795 0.020399
0.302493 0.771073 0.019980
0.331057 0.771353 0.019551
0.359363 0.771635 0.019110
0.387441 0.771918 0.018659
0.415311 0.772201 0.018199
0.442992 0.772486 0.017730
0.465758 0.772721 0.017336
0.489707 0.772970 0.016915
0.516117 0.773246 0.016442
0.544112 0.773540 0.015931
0.573311 0.773847 0.015390
0.603495 0.774165 0.014822
0.634521 0.774491 0.014231
0.666284 0.774825 0.013618
0.698707 0.775164 0.012986
0.731729 0.775507 0.012338
0.765297 0.775854 0.011674
0.799372 0.776202 0.010997
0.833916 0.776551 0.010309
0.868898 0.776899 0.009613
0.904292 0.777245 0.008909
0.936284 0.772004 0.006248
0.958514 0.757020 0.004243
0.971200 0.748003 0.004167
0.971202 0.748403 0.004162
0.056706 0.802998 0.021773
0.091645 0.803319 0.021345
0.124415 0.803628 0.020917
0.156003 0.803933 0.020483
0.186783 0.804236 0.020040
0.216955 0.804538 0.019587
0.246642 0.804840 0.019125
0.275928 0.805142 0.018655
0.304871 0.805443 0.018176
0.333517 0.805744 0.017690
0.361900 0.806044 0.017197
0.390048 0.806344 0.016697
0.417983 0.806643 0.016192
0.445724 0.806940 0.015682
0.468536 0.807186 0.015257
0.492528 0.807444 0.014804
